/* XPM */
static char *result[] = {
/* columns rows colors chars-per-pixel */
"128 128 6 1 ",
"  c #C29A37",
". c #DDAF3F",
"X c #F4BE41",
"o c #F8D548",
"O c #FCEB66",
"+ c #ECECEC",
/* pixels */
"++++++++++++++++++++++++++++++++++++++++++++++++++++++++++++++++++++++++++++++++++++++++++++++++++++++++++++++++++++++++++++++++",
"++++++++++++++++++++++++++++++++++++++++++++++++++++++++++++++++++++++++++++++++++++++++++++++++++++++++++++++++++++++++++++++++",
"++++++++++++++++++++++++++++++++++++++++++++++++++++++++++++++++++++++++++++++++++++++++++++++++++++++++++++++++++++++++++++++++",
"++++++++++++++++++++++++++++++++++++++++++++++++++++++++++++++++++++++++++++++++++++++++++++++++++++++++++++++++++++++++++++++++",
"++++++++++++++++++++++++++++++++++++++++++++++++++++++++++++++++++++++++++++++++++++++++++++++++++++++++++++++++++++++++++++++++",
"++++++++++++++++++++++++++++++++++++++++++++++++++++++++++++++++++++++++++++++++++++++++++++++++++++++++++++++++++++++++++++++++",
"++++++++++++++++++++++++++++++++++++++++++++++++++++++++++++++++++++++++++++++++++++++++++++++++++++++++++++++++++++++++++++++++",
"++++++++++++++++++++++++++++++++++++++++++++++++++++++++++++++++++++++++++++++++++++++++++++++++++++++++++++++++++++++++++++++++",
"++++++++++++++++++++++++++++++++++++++++++++++++++++++++++++++++++++++++++++++++++++++++++++++++++++++++++++++++++++++++++++++++",
"++++++++++++++++++++++++++++++++++++++++++++++++++++++++++++++++++++++++++++++++++++++++++++++++++++++++++++++++++++++++++++++++",
"++++++++++++++++++++++++++++++++++++++++++++++++++++++++++++++++++++++++++++++++++++++++++++++++++++++++++++++++++++++++++++++++",
"++++++++++++++++++++++++++++++++++++++++++++++++++++++++++++++++++++++++++++++++++++++++++++++++++++++++++++++++++++++++++++++++",
"++++++++++++++++++++++++++++++++++++++++++++++++++++++++++++++++++++++++++++++++++++++++++++++++++++++++++++++++++++++++++++++++",
"++++++++++++++++++++++++++++++++++++++++++++++++++++++++++++++++++++++++++++++++++++++++++++++++++++++++++++++++++++++++++++++++",
"++++++++++++++++++++++++++++++++++++++++++++++++++++++++++++ooooooooXXXXXXXX++++++++++++++++++++++++++++++++++++++++++++++++++++",
"++++++++++++++++++++++++++++++++++++++++++++++++++++++++++++ooooooooXXXXXXXX++++++++++++++++++++++++++++++++++++++++++++++++++++",
"++++++++++++++++++++++++++++++++++++++++++++++++++++++++++++ooooooooXXXXXXXX++++++++++++++++++++++++++++++++++++++++++++++++++++",
"++++++++++++++++++++++++++++++++++++++++++++++++++++++++++++ooooooooXXXXXXXX++++++++++++++++++++++++++++++++++++++++++++++++++++",
"++++++++++++++++++++++++++++++++++++++++++++++++++++++++++++ooooooooXXXXXXXX++++++++++++++++++++++++++++++++++++++++++++++++++++",
"++++++++++++++++++++++++++++++++++++++++++++++++++++++++++++ooooooooXXXXXXXX++++++++++++++++++++++++++++++++++++++++++++++++++++",
"++++++++++++++++++++++++++++++++++++++++++++++++++++++++++++ooooooooXXXXXXXX++++++++++++++++++++++++++++++++++++++++++++++++++++",
"++++++++++++++++++++++++++++++++++++++++++++++++++++++++++++ooooooooXXXXXXXX++++++++++++++++++++++++++++++++++++++++++++++++++++",
"++++++++++++++++++++++++++++++++++++++++++++ooooooooOOOOOOOOOOOOOOOOooooooooXXXXXXXX++++++++++++++++++++++++++++++++++++++++++++",
"++++++++++++++++++++++++++++++++++++++++++++ooooooooOOOOOOOOOOOOOOOOooooooooXXXXXXXX++++++++++++++++++++++++++++++++++++++++++++",
"++++++++++++++++++++++++++++++++++++++++++++ooooooooOOOOOOOOOOOOOOOOooooooooXXXXXXXX++++++++++++++++++++++++++++++++++++++++++++",
"++++++++++++++++++++++++++++++++++++++++++++ooooooooOOOOOOOOOOOOOOOOooooooooXXXXXXXX++++++++++++++++++++++++++++++++++++++++++++",
"++++++++++++++++++++++++++++++++++++++++++++ooooooooOOOOOOOOOOOOOOOOooooooooXXXXXXXX++++++++++++++++++++++++++++++++++++++++++++",
"++++++++++++++++++++++++++++++++++++++++++++ooooooooOOOOOOOOOOOOOOOOooooooooXXXXXXXX++++++++++++++++++++++++++++++++++++++++++++",
"++++++++++++++++++++++++++++++++++++++++++++ooooooooOOOOOOOOOOOOOOOOooooooooXXXXXXXX++++++++++++++++++++++++++++++++++++++++++++",
"++++++++++++++++++++++++++++++++++++++++++++ooooooooOOOOOOOOOOOOOOOOooooooooXXXXXXXX++++++++++++++++++++++++++++++++++++++++++++",
"++++++++++++++++++++++++++++++++++++OOOOOOOOOOOOOOOOOOOOOOOOOOOOOOOOOOOOOOOOooooooooXXXXXXXX++++++++++++++++++++++++++++++++++++",
"++++++++++++++++++++++++++++++++++++OOOOOOOOOOOOOOOOOOOOOOOOOOOOOOOOOOOOOOOOooooooooXXXXXXXX++++++++++++++++++++++++++++++++++++",
"++++++++++++++++++++++++++++++++++++OOOOOOOOOOOOOOOOOOOOOOOOOOOOOOOOOOOOOOOOooooooooXXXXXXXX++++++++++++++++++++++++++++++++++++",
"++++++++++++++++++++++++++++++++++++OOOOOOOOOOOOOOOOOOOOOOOOOOOOOOOOOOOOOOOOooooooooXXXXXXXX++++++++++++++++++++++++++++++++++++",
"++++++++++++++++++++++++++++++++++++OOOOOOOOOOOOOOOOOOOOOOOOOOOOOOOOOOOOOOOOooooooooXXXXXXXX++++++++++++++++++++++++++++++++++++",
"++++++++++++++++++++++++++++++++++++OOOOOOOOOOOOOOOOOOOOOOOOOOOOOOOOOOOOOOOOooooooooXXXXXXXX++++++++++++++++++++++++++++++++++++",
"++++++++++++++++++++++++++++++++++++OOOOOOOOOOOOOOOOOOOOOOOOOOOOOOOOOOOOOOOOooooooooXXXXXXXX++++++++++++++++++++++++++++++++++++",
"++++++++++++++++++++++++++++++++++++OOOOOOOOOOOOOOOOOOOOOOOOOOOOOOOOOOOOOOOOooooooooXXXXXXXX++++++++++++++++++++++++++++++++++++",
"++++++++++++++++++++ooooooooOOOOOOOOooooooooOOOOOOOOOOOOOOOOOOOOOOOOooooooooooooooooXXXXXXXX++++++++++++++++++++++++++++++++++++",
"++++++++++++++++++++ooooooooOOOOOOOOooooooooOOOOOOOOOOOOOOOOOOOOOOOOooooooooooooooooXXXXXXXX++++++++++++++++++++++++++++++++++++",
"++++++++++++++++++++ooooooooOOOOOOOOooooooooOOOOOOOOOOOOOOOOOOOOOOOOooooooooooooooooXXXXXXXX++++++++++++++++++++++++++++++++++++",
"++++++++++++++++++++ooooooooOOOOOOOOooooooooOOOOOOOOOOOOOOOOOOOOOOOOooooooooooooooooXXXXXXXX++++++++++++++++++++++++++++++++++++",
"++++++++++++++++++++ooooooooOOOOOOOOooooooooOOOOOOOOOOOOOOOOOOOOOOOOooooooooooooooooXXXXXXXX++++++++++++++++++++++++++++++++++++",
"++++++++++++++++++++ooooooooOOOOOOOOooooooooOOOOOOOOOOOOOOOOOOOOOOOOooooooooooooooooXXXXXXXX++++++++++++++++++++++++++++++++++++",
"++++++++++++++++++++ooooooooOOOOOOOOooooooooOOOOOOOOOOOOOOOOOOOOOOOOooooooooooooooooXXXXXXXX++++++++++++++++++++++++++++++++++++",
"++++++++++++++++++++ooooooooOOOOOOOOooooooooOOOOOOOOOOOOOOOOOOOOOOOOooooooooooooooooXXXXXXXX++++++++++++++++++++++++++++++++++++",
"++++++++++++OOOOOOOOOOOOOOOOooooooooOOOOOOOOOOOOOOOOooooooooOOOOOOOOOOOOOOOOooooooooXXXXXXXX++++++++++++++++++++++++++++++++++++",
"++++++++++++OOOOOOOOOOOOOOOOooooooooOOOOOOOOOOOOOOOOooooooooOOOOOOOOOOOOOOOOooooooooXXXXXXXX++++++++++++++++++++++++++++++++++++",
"++++++++++++OOOOOOOOOOOOOOOOooooooooOOOOOOOOOOOOOOOOooooooooOOOOOOOOOOOOOOOOooooooooXXXXXXXX++++++++++++++++++++++++++++++++++++",
"++++++++++++OOOOOOOOOOOOOOOOooooooooOOOOOOOOOOOOOOOOooooooooOOOOOOOOOOOOOOOOooooooooXXXXXXXX++++++++++++++++++++++++++++++++++++",
"++++++++++++OOOOOOOOOOOOOOOOooooooooOOOOOOOOOOOOOOOOooooooooOOOOOOOOOOOOOOOOooooooooXXXXXXXX++++++++++++++++++++++++++++++++++++",
"++++++++++++OOOOOOOOOOOOOOOOooooooooOOOOOOOOOOOOOOOOooooooooOOOOOOOOOOOOOOOOooooooooXXXXXXXX++++++++++++++++++++++++++++++++++++",
"++++++++++++OOOOOOOOOOOOOOOOooooooooOOOOOOOOOOOOOOOOooooooooOOOOOOOOOOOOOOOOooooooooXXXXXXXX++++++++++++++++++++++++++++++++++++",
"++++++++++++OOOOOOOOOOOOOOOOooooooooOOOOOOOOOOOOOOOOooooooooOOOOOOOOOOOOOOOOooooooooXXXXXXXX++++++++++++++++++++++++++++++++++++",
"++++++++++++XXXXXXXXXXXXXXXXXXXXXXXXXXXXXXXXXXXXXXXXXXXXXXXXXXXXXXXXXXXXXXXXXXXXXXXXoooooooo++++++++++++++++++++++++++++++++++++",
"++++++++++++XXXXXXXXXXXXXXXXXXXXXXXXXXXXXXXXXXXXXXXXXXXXXXXXXXXXXXXXXXXXXXXXXXXXXXXXoooooooo++++++++++++++++++++++++++++++++++++",
"++++++++++++XXXXXXXXXXXXXXXXXXXXXXXXXXXXXXXXXXXXXXXXXXXXXXXXXXXXXXXXXXXXXXXXXXXXXXXXoooooooo++++++++++++++++++++++++++++++++++++",
"++++++++++++XXXXXXXXXXXXXXXXXXXXXXXXXXXXXXXXXXXXXXXXXXXXXXXXXXXXXXXXXXXXXXXXXXXXXXXXoooooooo++++++++++++++++++++++++++++++++++++",
"++++++++++++XXXXXXXXXXXXXXXXXXXXXXXXXXXXXXXXXXXXXXXXXXXXXXXXXXXXXXXXXXXXXXXXXXXXXXXXoooooooo++++++++++++++++++++++++++++++++++++",
"++++++++++++XXXXXXXXXXXXXXXXXXXXXXXXXXXXXXXXXXXXXXXXXXXXXXXXXXXXXXXXXXXXXXXXXXXXXXXXoooooooo++++++++++++++++++++++++++++++++++++",
"++++++++++++XXXXXXXXXXXXXXXXXXXXXXXXXXXXXXXXXXXXXXXXXXXXXXXXXXXXXXXXXXXXXXXXXXXXXXXXoooooooo++++++++++++++++++++++++++++++++++++",
"++++++++++++XXXXXXXXXXXXXXXXXXXXXXXXXXXXXXXXXXXXXXXXXXXXXXXXXXXXXXXXXXXXXXXXXXXXXXXXoooooooo++++++++++++++++++++++++++++++++++++",
"++++++++++++XXXXXXXXooooooooXXXXXXXXXXXXXXXXXXXXXXXXoooooooo................                ++++++++++++++++++++++++++++++++++++",
"++++++++++++XXXXXXXXooooooooXXXXXXXXXXXXXXXXXXXXXXXXoooooooo................                ++++++++++++++++++++++++++++++++++++",
"++++++++++++XXXXXXXXooooooooXXXXXXXXXXXXXXXXXXXXXXXXoooooooo................                ++++++++++++++++++++++++++++++++++++",
"++++++++++++XXXXXXXXooooooooXXXXXXXXXXXXXXXXXXXXXXXXoooooooo................                ++++++++++++++++++++++++++++++++++++",
"++++++++++++XXXXXXXXooooooooXXXXXXXXXXXXXXXXXXXXXXXXoooooooo................                ++++++++++++++++++++++++++++++++++++",
"++++++++++++XXXXXXXXooooooooXXXXXXXXXXXXXXXXXXXXXXXXoooooooo................                ++++++++++++++++++++++++++++++++++++",
"++++++++++++XXXXXXXXooooooooXXXXXXXXXXXXXXXXXXXXXXXXoooooooo................                ++++++++++++++++++++++++++++++++++++",
"++++++++++++XXXXXXXXooooooooXXXXXXXXXXXXXXXXXXXXXXXXoooooooo................                ++++++++++++++++++++++++++++++++++++",
"++++++++++++XXXXXXXXXXXXXXXXXXXXXXXXooooooooXXXXXXXXXXXXXXXX................XXXXXXXX        ++++++++++++++++++++++++++++++++++++",
"++++++++++++XXXXXXXXXXXXXXXXXXXXXXXXooooooooXXXXXXXXXXXXXXXX................XXXXXXXX        ++++++++++++++++++++++++++++++++++++",
"++++++++++++XXXXXXXXXXXXXXXXXXXXXXXXooooooooXXXXXXXXXXXXXXXX................XXXXXXXX        ++++++++++++++++++++++++++++++++++++",
"++++++++++++XXXXXXXXXXXXXXXXXXXXXXXXooooooooXXXXXXXXXXXXXXXX................XXXXXXXX        ++++++++++++++++++++++++++++++++++++",
"++++++++++++XXXXXXXXXXXXXXXXXXXXXXXXooooooooXXXXXXXXXXXXXXXX................XXXXXXXX        ++++++++++++++++++++++++++++++++++++",
"++++++++++++XXXXXXXXXXXXXXXXXXXXXXXXooooooooXXXXXXXXXXXXXXXX................XXXXXXXX        ++++++++++++++++++++++++++++++++++++",
"++++++++++++XXXXXXXXXXXXXXXXXXXXXXXXooooooooXXXXXXXXXXXXXXXX................XXXXXXXX        ++++++++++++++++++++++++++++++++++++",
"++++++++++++XXXXXXXXXXXXXXXXXXXXXXXXooooooooXXXXXXXXXXXXXXXX................XXXXXXXX        ++++++++++++++++++++++++++++++++++++",
"++++++++++++++++++++++++++++++++++++XXXXXXXXXXXXXXXXXXXXXXXXoooooooo........                ++++++++++++++++++++++++++++++++++++",
"++++++++++++++++++++++++++++++++++++XXXXXXXXXXXXXXXXXXXXXXXXoooooooo........                ++++++++++++++++++++++++++++++++++++",
"++++++++++++++++++++++++++++++++++++XXXXXXXXXXXXXXXXXXXXXXXXoooooooo........                ++++++++++++++++++++++++++++++++++++",
"++++++++++++++++++++++++++++++++++++XXXXXXXXXXXXXXXXXXXXXXXXoooooooo........                ++++++++++++++++++++++++++++++++++++",
"++++++++++++++++++++++++++++++++++++XXXXXXXXXXXXXXXXXXXXXXXXoooooooo........                ++++++++++++++++++++++++++++++++++++",
"++++++++++++++++++++++++++++++++++++XXXXXXXXXXXXXXXXXXXXXXXXoooooooo........                ++++++++++++++++++++++++++++++++++++",
"++++++++++++++++++++++++++++++++++++XXXXXXXXXXXXXXXXXXXXXXXXoooooooo........                ++++++++++++++++++++++++++++++++++++",
"++++++++++++++++++++++++++++++++++++XXXXXXXXXXXXXXXXXXXXXXXXoooooooo........                ++++++++++++++++++++++++++++++++++++",
"++++++++++++++++++++++++++++++++++++++++++++++++++++++++++++++++++++++++++++++++++++++++++++++++++++++++++++++++++++++++++++++++",
"++++++++++++++++++++++++++++++++++++++++++++++++++++++++++++++++++++++++++++++++++++++++++++++++++++++++++++++++++++++++++++++++",
"++++++++++++++++++++++++++++++++++++++++++++++++++++++++++++++++++++++++++++++++++++++++++++++++++++++++++++++++++++++++++++++++",
"++++++++++++++++++++++++++++++++++++++++++++++++++++++++++++++++++++++++++++++++++++++++++++++++++++++++++++++++++++++++++++++++",
"++++++++++++++++++++++++++++++++++++++++++++++++++++++++++++++++++++++++++++++++++++++++++++++++++++++++++++++++++++++++++++++++",
"++++++++++++++++++++++++++++++++++++++++++++++++++++++++++++++++++++++++++++++++++++++++++++++++++++++++++++++++++++++++++++++++",
"++++++++++++++++++++++++++++++++++++++++++++++++++++++++++++++++++++++++++++++++++++++++++++++++++++++++++++++++++++++++++++++++",
"++++++++++++++++++++++++++++++++++++++++++++++++++++++++++++++++++++++++++++++++++++++++++++++++++++++++++++++++++++++++++++++++",
"++++++++++++++++++++++++++++++++++++++++++++++++++++++++++++++++++++++++++++++++++++++++++++++++++++++++++++++++++++++++++++++++",
"++++++++++++++++++++++++++++++++++++++++++++++++++++++++++++++++++++++++++++++++++++++++++++++++++++++++++++++++++++++++++++++++",
"++++++++++++++++++++++++++++++++++++++++++++++++++++++++++++++++++++++++++++++++++++++++++++++++++++++++++++++++++++++++++++++++",
"++++++++++++++++++++++++++++++++++++++++++++++++++++++++++++++++++++++++++++++++++++++++++++++++++++++++++++++++++++++++++++++++",
"++++++++++++++++++++++++++++++++++++++++++++++++++++++++++++++++++++++++++++++++++++++++++++++++++++++++++++++++++++++++++++++++",
"++++++++++++++++++++++++++++++++++++++++++++++++++++++++++++++++++++++++++++++++++++++++++++++++++++++++++++++++++++++++++++++++",
"++++++++++++++++++++++++++++++++++++++++++++++++++++++++++++++++++++++++++++++++++++++++++++++++++++++++++++++++++++++++++++++++",
"++++++++++++++++++++++++++++++++++++++++++++++++++++++++++++++++++++++++++++++++++++++++++++++++++++++++++++++++++++++++++++++++",
"++++++++++++++++++++++++++++++++++++++++++++++++++++++++++++++++++++++++++++++++++++++++++++++++++++++++++++++++++++++++++++++++",
"++++++++++++++++++++++++++++++++++++++++++++++++++++++++++++++++++++++++++++++++++++++++++++++++++++++++++++++++++++++++++++++++",
"++++++++++++++++++++++++++++++++++++++++++++++++++++++++++++++++++++++++++++++++++++++++++++++++++++++++++++++++++++++++++++++++",
"++++++++++++++++++++++++++++++++++++++++++++++++++++++++++++++++++++++++++++++++++++++++++++++++++++++++++++++++++++++++++++++++",
"++++++++++++++++++++++++++++++++++++++++++++++++++++++++++++++++++++++++++++++++++++++++++++++++++++++++++++++++++++++++++++++++",
"++++++++++++++++++++++++++++++++++++++++++++++++++++++++++++++++++++++++++++++++++++++++++++++++++++++++++++++++++++++++++++++++",
"++++++++++++++++++++++++++++++++++++++++++++++++++++++++++++++++++++++++++++++++++++++++++++++++++++++++++++++++++++++++++++++++",
"++++++++++++++++++++++++++++++++++++++++++++++++++++++++++++++++++++++++++++++++++++++++++++++++++++++++++++++++++++++++++++++++",
"++++++++++++++++++++++++++++++++++++++++++++++++++++++++++++++++++++++++++++++++++++++++++++++++++++++++++++++++++++++++++++++++",
"++++++++++++++++++++++++++++++++++++++++++++++++++++++++++++++++++++++++++++++++++++++++++++++++++++++++++++++++++++++++++++++++",
"++++++++++++++++++++++++++++++++++++++++++++++++++++++++++++++++++++++++++++++++++++++++++++++++++++++++++++++++++++++++++++++++",
"++++++++++++++++++++++++++++++++++++++++++++++++++++++++++++++++++++++++++++++++++++++++++++++++++++++++++++++++++++++++++++++++",
"++++++++++++++++++++++++++++++++++++++++++++++++++++++++++++++++++++++++++++++++++++++++++++++++++++++++++++++++++++++++++++++++",
"++++++++++++++++++++++++++++++++++++++++++++++++++++++++++++++++++++++++++++++++++++++++++++++++++++++++++++++++++++++++++++++++",
"++++++++++++++++++++++++++++++++++++++++++++++++++++++++++++++++++++++++++++++++++++++++++++++++++++++++++++++++++++++++++++++++",
"++++++++++++++++++++++++++++++++++++++++++++++++++++++++++++++++++++++++++++++++++++++++++++++++++++++++++++++++++++++++++++++++",
"++++++++++++++++++++++++++++++++++++++++++++++++++++++++++++++++++++++++++++++++++++++++++++++++++++++++++++++++++++++++++++++++",
"++++++++++++++++++++++++++++++++++++++++++++++++++++++++++++++++++++++++++++++++++++++++++++++++++++++++++++++++++++++++++++++++",
"++++++++++++++++++++++++++++++++++++++++++++++++++++++++++++++++++++++++++++++++++++++++++++++++++++++++++++++++++++++++++++++++",
"++++++++++++++++++++++++++++++++++++++++++++++++++++++++++++++++++++++++++++++++++++++++++++++++++++++++++++++++++++++++++++++++",
"++++++++++++++++++++++++++++++++++++++++++++++++++++++++++++++++++++++++++++++++++++++++++++++++++++++++++++++++++++++++++++++++",
"++++++++++++++++++++++++++++++++++++++++++++++++++++++++++++++++++++++++++++++++++++++++++++++++++++++++++++++++++++++++++++++++",
"++++++++++++++++++++++++++++++++++++++++++++++++++++++++++++++++++++++++++++++++++++++++++++++++++++++++++++++++++++++++++++++++",
"++++++++++++++++++++++++++++++++++++++++++++++++++++++++++++++++++++++++++++++++++++++++++++++++++++++++++++++++++++++++++++++++",
"++++++++++++++++++++++++++++++++++++++++++++++++++++++++++++++++++++++++++++++++++++++++++++++++++++++++++++++++++++++++++++++++",
"++++++++++++++++++++++++++++++++++++++++++++++++++++++++++++++++++++++++++++++++++++++++++++++++++++++++++++++++++++++++++++++++"
};
