/* XPM */
static char *result[] = {
/* columns rows colors chars-per-pixel */
"64 62 93 2 ",
"   c #000005",
".  c #00000E",
"X  c #000314",
"o  c #000319",
"O  c #000F1E",
"+  c #00111F",
"@  c #06181D",
"#  c #1C1F1B",
"$  c #001527",
"%  c #0C1F26",
"&  c #001C2E",
"*  c #0E2027",
"=  c #05242A",
"-  c #0E2129",
";  c #1E2424",
":  c #14252E",
">  c #11282D",
",  c #1D2B2D",
"<  c #172830",
"1  c #1C2C31",
"2  c #162D3A",
"3  c #1B2E39",
"4  c #1F3034",
"5  c #1E323E",
"6  c #212A2E",
"7  c #222D33",
"8  c #2A283A",
"9  c #312F3D",
"0  c #223036",
"q  c #26333C",
"w  c #2A343B",
"e  c #31303F",
"r  c #243641",
"t  c #283742",
"y  c #2A3A44",
"u  c #2D3D48",
"i  c #333241",
"p  c #333748",
"a  c #343849",
"s  c #2D414F",
"d  c #3F4549",
"f  c #2F4454",
"g  c #324553",
"h  c #4B4A46",
"j  c #40474B",
"k  c #474C4F",
"l  c #474D51",
"z  c #494E52",
"x  c #4D5356",
"c  c #4B545B",
"v  c #5B5F62",
"b  c #5B6063",
"n  c #4E7796",
"m  c #4B7798",
"M  c #4D7A9C",
"N  c #517796",
"B  c #537C9C",
"V  c #557EA0",
"C  c #853486",
"Z  c #8A348A",
"A  c #5F809D",
"S  c #60809D",
"D  c #5C8AAF",
"F  c #5E8EB4",
"G  c #588FB9",
"H  c #5F90B7",
"J  c #5C91B9",
"K  c #6687A3",
"L  c #6788A4",
"P  c #6888A5",
"I  c #608FB5",
"U  c #6191B7",
"Y  c #6B93B5",
"T  c #6091B8",
"R  c #6E96B9",
"E  c #7096B7",
"W  c #7898B6",
"Q  c #7097B8",
"!  c #CEB695",
"~  c #CAB498",
"^  c #D4B994",
"/  c #D0B898",
"(  c #EDD0AB",
")  c #F4D5AD",
"_  c #F8D7AD",
"`  c #F7D8AE",
"'  c #F8D8AE",
"]  c #F4D6B0",
"[  c #E6E6E6",
"{  c #E7E7E8",
"}  c #ECECEC",
"|  c #F3F4F4",
" . c #FBFBFC",
/* pixels */
"} } } } } } } } } } } } } } } } } } } } } } } } } } } } } } } } } } } } } } } } } } } } } } } } } } } } } } } } } } } } } } } } ",
"} } } } } } } } } } } } } } } } } } } } } } } } } } } } } } } } } } } } } } } } } } } } } } } } } } } } } } } } } } } } } } } } ",
"} } } } } } } } } } } } } } } } } } } } } } } } } } } } } } } } } } } } } } } } } } } } } } } } } } } } } } } } } } } } } } } } ",
"} } } } } } } } } } } } } } } } } } } } } } } } } } } } } } } } } } } } } } } } } } } } } } } } } } } } } } } } } } } } } } } } ",
"} } } } } } } } } } } } } } } } } } } } } } } } } } } } } } } } } } } } } } } } } } } } } } } } } } } } } } } } } } } } } } } } ",
"} } } } } } } } } } } } } } } } } } } } } } } } } } } } } } } } } } } } } } } } } } } } } } } } } } } } } } } } } } } } } } } } ",
"} } } } } } } } } } } } } } } } } } } } } } } } } } } } } } } } } } } } } } } } } } } } } } } } } } } } } } } } } } } } } } } } ",
"} } } } } } } } } } } } } } } } } } } } } } } } } } } } } } } } } } } } } } } } } } } } } } } } } } } } } } } } } } } } } } } } ",
"} } } } } } } } } } } } } } } } } } } } } } } } } } } } } } } } } } } } } } } } } } } } } } } } } } } } } } } } } } } } } } } } ",
"} } } } } } } } } } } } { } } } } } } } } } } } } } } } } } } } } } } } } } } } } | } } } } } } } } } } } } } } } } } } } } } } ",
"} } } } } } } } } } } } } } } } { [ { [ } { [ [ { { [ [ } { [ [ [ [ { [ { [ [ [ [ [ { { [ [ { { [ } } } } } } } } } } } } } } } ",
"} } } } } } } } } } } } } } } [ v j z z k z k z k x l k z k l z z l z z l l l k z z z z z z z d b [ } } } } } } } } } } } } } } ",
"} } } } } } } } } } } } } } } } k O : % * * * * * * * - - > : % * % * % % % * % * * * * * * ; X d [ } } } } } } } } } } } } } } ",
"} } } } } } } } } } } } } [ [ [ l < q u u y y u y y y y w w 0 u u u u u u u u u u u y s y y s 5 c [ } [ } } } } } } } } } } } } ",
"} } } } } } } } } } } } [ b d l q 7 y N N N N B N n N N y 7 u F F F F H F H F H F H H H H H H H D c d b [ } { } } } } } } } } } ",
"} } } } } } } } } } } } } d O - 0 7 t N V B M M M N D B 2 + 5 F T T T T U U U T H H H H H T H T H 5   d } } } } } } } } } } } } ",
"} } } } } } } } } } { { [ z 8 i w 7 y N B B L L P B B N c z c I F D T H T H T T T T H T T T T T F g 5 c [ [ [ } } } } } } } } } ",
"} } } } } } } } } { b d x C Z C i 6 w B M L |  .| c & x |  .| L M D H T T T T T H T T T T H T T H F H D c d b [ } } } } } } } } ",
"} } } } } } } } } { d + 8 Z Z Z e 1 y B M P  . . .z . x  . . .P m B H T T T T T T T T T H T T T U T T H 5 X j [ } } } } } } } } ",
"} } } } } } } } } [ z > i Z Z Z i 1 y N M P  . . .x o x  . . .P m D H T H H F F T T H T T T T T H F H D a : z [ } } } } } } } } ",
"} } } } } } } } } { l = i Z Z C e 7 y B M L  . .| x o x  . . .L m B T T F f q f F T T T T H T T H f y y 0 : l { } } } } } } } } ",
"} } } } } } } } } { l = i Z Z Z e 1 t B M L  . . .x o x  . . .L m N U T F t # t F T T T T T T T H q ; , q > l [ } } } } } } } } ",
"} } } } } } } } } { l = i Z Z C e 4 y N M P  . . .x X c  . . .L m D H T F f t f F T T T T H T T F f y u q - l [ } } } } } } } } ",
"} } } } } } } } } [ z , w e e e 0 0 y N M P  . .| x o c  . . .P m B T T T F F F T T T H T T T T H H F D u % l { } } } } } } } } ",
"} } } } } } } } } [ d $ : 0 0 0 0 6 q A M L  . . .x X x  . . .P m B H T H T T T T T T T T T H T T T T H u % l [ } } } } } } } } ",
"} } } } } } } } } [ v j l 0 0 0 e e u m m K |  .| c & c |  .| P M B H T T T T T H T T H H U T T T T T F u % l [ } } } } } } } } ",
"} } } } } } } } } } [ { [ k > i C Z C p q s K P P B B B L L L B N B T T T T T T T T T T H T T T T T T F u % z [ | } } } } } } } ",
"} } } } } } } } } } } } { k = i Z Z Z 9 , q m M N B B B m M M V B V T T U T T T T H T H T T H T T T T F u % l [ } } } } } } } } ",
"} } } } } { } } } } } } { z = i Z Z C i 1 y B B B B B B B D A M B V H T H T T T T U T T T H T T T T T F u % l [ } } } } } } } } ",
"} } } } } } } } } } } } { z = i Z Z Z i 1 y M B B B V M N m B B B V H T H T T H T T T T T T T U U H T F u % l [ } } } } } } } } ",
"} } } } } } } } } } } } [ k = i Z Z Z i 1 t N V B B B A B B B B B B H T T T T T U T T T T T T T T H T H u % l { } } } } } } } } ",
"} } } } } } } } } } } } [ z = i C Z C i 7 y N B B B B B B B B B B V F H H T H T F F H F F H F F H F F F u - l { } } } } } } } } ",
"} } } } } } } } } } } } { z < w i p i 0 7 y N B V B B B B B B B B B V B V H T F f y u y y u y u u u u u w , l [ } } } } } } } } ",
"} } } } } } } } } } } } { j O : = = = 0 7 y B B B B B B B B V B B B B B B H T F q ; , 7 7 1 % % % % % % : + d { } } } } } } } } ",
"} } } } } } } } } } } } { v j z z z k 0 7 q m B N V N B B B B B V V B B V T T F g y u w 0 w l l l z l l z j v { } } } } } } } } ",
"} } } } } } } } } } } } } { { { { { [ z < w t t s M N D B B B F T H T U T T T T F F D y % l [ [ [ [ [ [ { [ { } } } } } } } } } ",
"} } } } } } } } } } } } } } } } } } } j + : 0 6 q N D m M N V J H G J J F H J J H J G u % x } } } } } } | } } } } } } } } } } } ",
"} } } } } } } } } } } } } } } } } } [ v d k w 7 y N B N A S A R R E R R Q Q R R Q Q Y u % k { } } } } } } } } } } } } } } } } } ",
"} } } } } } } } } } } } } } } } } } } [ { [ k - y B B A ~ ! ! ) ) ) ) ] ] ] ) ) ) ) ( h $ k [ } } } } } } } } } } } } } } } } } ",
"} } } } } } } } } } } } } } } } } } } } } { x * y B M A / ^ ^ ' ' ' ' ' ' ' ' ' ' ' ) h $ k { } } } } } } } } } } } } } } } } } ",
"} } } } } } } } } } } } } } } } } [ [ { { [ k % y N B S ! ^ ^ ) ' ` ` ' ' _ ' _ _ ' ) h $ k { } } } } } } } } } } } } } } } } } ",
"} } } } } } } } } } } } } } } { v j z z z k 0 1 y B M S ! ^ ^ ` ' ' ` ' ` ' ' ' ' ' ) h $ x [ } } } } } } } } } } } } } } } } } ",
"} } } } } } } } } } } } } } } { j O < % % % 7 7 q N B S ! ! ^ ) ` ` ' ' ` ' ' ` ' ' ( h $ k { } } } } } } } } } } } } } } } } } ",
"} } } } } } } } } } } } } } } { k , q u u u y y f N B B ! ^ ^ ` ` ` ' ` ' ' ` ` ' ' ) h $ z { } } } } } } } } } } } } } } } } } ",
"} } } } } } } } } } } } } } } [ l % u D I I F F F B M K ! ^ ^ ) ` ` ' ` ` ` ' ' _ ' ) h $ k { } } } } } } } } } } } } } } } } } ",
"} } } } } } } } } } } } } } } { l % u F T T T T H A M S ! ^ ^ ) ' ' ' ' ' ' ' ' ' ' ) h $ k { } } } } } } } } } } } } } } } } } ",
"} } } } } } } } } } } } } } } { l % y F F F U U U B B S ! ! ! ) ) ) ) ` ` ` ` _ ) ] ( h $ k [ } } } } } } } } } } } } } } } } } ",
"} } } } } } } } } } } } } } } [ l < t u y u B V B B B B S B A Y Q W / ^ ^ ^ ^ / W Q E p % l [ } } } } } } } } } } } } } } } } } ",
"} } } } } } } } } } } } } } } [ d $ : 7 6 q B B B B B B M M B F G Y ! ^ ! ^ ^ ! U G F u * z { } } } } } } } } } } } } } } } } } ",
"} } } } } } } } } } } } } } } [ v d z w 7 t N N B B B B V V D F J Y ~ / ! ! ! ~ Y H F u * k { } } } } } } } } } } } } } } } } } ",
"} { } } } } } } } } } } } } } } { } [ l < q y q u B B V H H H T H H Y Y Y Y Y Y T H F u % k { } } } } } } } } } } } } } } } } } ",
"} } } } } } } } } } } } } } } } } } [ d O < 7 7 t N B V H T T T J H J H J J J J T T F u * l { } } } } } } } } } } } } } } } } } ",
"} } } } } } } } } } } } } } } } } } { v d k w 7 y M B V H T T F H H F F F H U J T T H u % z [ } } } } } } } } } } } } } } } } } ",
"} } } } } } } } } } } } } } } } } } } [ { [ l - y M B B H T F g u u u y s B B A H T F s * x [ } } } } } } } } } } } } } } } } } ",
"} } } } } } } } } } } } } } } } } } } } } { z % y N B V T T F 2 @ - 7 , r M B B H T F r X j { } { } } } } } } } } } } } } } } } ",
"} } } } } } } } } } } } } } } } } } } } } [ z % y N V B F F F c z z 0 7 y m A B F H D c j b { } } } } } } } } } } } } } } } } } ",
"} } } } } } } } } } } } } } } } } } } } } { l - u N B M g 5 c [ } [ l - y N V N g 5 c [ [ [ } } } } } } } } } } } } } } } } } } ",
"} } { } } } } } } } } } } } } } } } } } } [ l % y N V B 1   d { } [ z - y N V B 3 . d { } } } } } } } } } } } } } { } } } } } } ",
"} } } } } } } } } } } } } } } } } } } } } { k - u n N N c d b { } [ z - t n B N l d v { } } } } } } } } } } } } } } } } } } } } ",
"} } } } } } } } } } } } } } } } } } } } } { z , w y 5 z [ { { } } { z : w u 5 c [ { { } } } } } } } } } } } } } } } } } } } } } ",
"} } } } } } } } } } } } } } } } } } } } } { j + : : o j { } } } } { j + : : X j { } } } } } } } } } } } } } } } } } } } } } } } ",
"} } } } } } } } } } } } } } } } } } } } } { v j z z j b { } } } } { v j z z j b [ } } } } } } } } } } } } } } } } } } } } } } } "
};
