/* XPM */
static char *result[] = {
/* columns rows colors chars-per-pixel */
"64 64 75 1 ",
"  c #010000",
". c #0B0500",
"X c #0F0802",
"o c #0E0E09",
"O c #100B05",
"+ c #130E0A",
"@ c #15120E",
"# c #161512",
"$ c #191514",
"% c #1C1917",
"& c #1D1C1B",
"* c #211E1E",
"= c #1E201F",
"- c #242324",
"; c #282627",
": c #262728",
"> c #2A2728",
", c #272929",
"< c #2C2B2C",
"1 c #312D2F",
"2 c #2F2F30",
"3 c #302F31",
"4 c #2F3031",
"5 c #333234",
"6 c #363638",
"7 c #393639",
"8 c #3C3A3D",
"9 c #403C3F",
"0 c #3F3D40",
"q c #413E42",
"w c #444145",
"e c #474549",
"r c #49464A",
"t c #4C494E",
"y c #4F4C51",
"u c #524E53",
"i c #545156",
"p c #565359",
"a c #59565B",
"s c #5C595F",
"d c #5E5B61",
"f c #615D63",
"g c #636067",
"h c #66636A",
"j c #69666D",
"k c #6B686F",
"l c #6E6A71",
"z c #726E75",
"x c #717077",
"c c #757279",
"v c #79767D",
"b c #7A787F",
"n c #7D7A82",
"m c #817E86",
"M c #827F88",
"N c #85828B",
"B c #89858E",
"V c #8A8790",
"C c #8D8A93",
"Z c #908E97",
"A c #928F98",
"S c #95929B",
"D c #98969F",
"F c #9997A1",
"G c #9D9BA5",
"H c #9F9EA8",
"J c #A09DA7",
"K c #A09EA9",
"L c #A4A2AD",
"P c #A7A5B0",
"I c #A9A6B1",
"U c #ACA9B4",
"Y c #B1AEB9",
"T c #B4B1BD",
"R c None",
/* pixels */
"RRRRRRRRRRRRRRRRRRRRRRRRRRRRRRRRRRRRRRRRRRRRRRRRRRRRRRRRRRRRRRRR",
"RRRRRRRRRRRRRRRRRRRRRRRRRRRRRRRRRRRRRRRRRRRRRRRRRRRRRRRRRRRRRRRR",
"RRRRRRRRRRRRRRRRRRRRRRRRRRRRRRRRRRRRRRRRRRRRRRRRRRRRRRRRRRRRRRRR",
"RRRRRRRRRRRRRRRRRRRRRRRRRRRRRRRRRRRRRRRRRRRRRRRRRRRRRRRRRRRRRRRR",
"RRRRRRRRRRRRRBNNMMMMMNmvzkzmAJJDZMmmNMmvlkzNAJLDZNmRRRRRRRRRRRRR",
"RRRRRRRRRRRRNNNNBMNMNNMbzkzmZJKDZBMmNNMvzjzmAGJDZBMmRRRRRRRRRRRR",
"RRRRRRRRRRRRBNDFAAAASZVNvzvBDPULFSCZZZZMvzvNDIUIPGNMRRRRRRRRRRRR",
"RRRRRRRRRRRCVNDFGGGJJJDZmvvCJUYUPJGGJJGZNcbCJUYTULAZVRRRRRRRRRRR",
"RRRRRRRRRLGACNCDGJLLLLGZMzvBFPUUPKKKKKJAmccBDPUUUPDAZZBRRRRRRRRR",
"RRRRRRRRLKGFCNBCDJKLPLGZmzzmAKPLKKKPPKJAmzzmAJPPPKJDABNMRRRRRRRR",
"RRRRRRRRLKYUFVVCADGJJJDCvkjvVDGHJFJJJJDVvjkcBDJJJJGGJSmmRRRRRRRR",
"RRRRRRRRLKTTKDACZCZZZZBmkfdknBCCZCCZAABmlffzbNZAAAASSZmvRRRRRRRR",
"RRRRRRRRLLYYUHFCNmccvbcksuusjcvnncvnnvcjsuysjxvmmmmmMmccRRRRRRRR",
"RRRRRRRRKKYYULFCvjaasfsir88eudfffdffffsie98eusfhkkzzvvlkRRRRRRRR",
"RRRRRRRRGGLUPHFVzu97wrw964<69wrrrqrqrqqq5<<57qyafkzcvzkzRRRRRRRR",
"RRRRRRRRZCDGFDCnhr115775<,,<5778889979951>,:-5eazvmMMnzcRRRRRRRR",
"RRRRRRRRbnNBBNnzaw3<3655<<<22566667676532,<-&,egvBAAZNnnRRRRRRRR",
"RRRRRRRRzlcvvczfuq223555522455566666555544<:#=elNDJJFCMMRRRRRRRR",
"RRRRRRRRzlcvzzfar6,>25566677665544445556666<#-elVGLLKANMRRRRRRRR",
"RRRRRRRRnnNMmclft6-,500qqqqq0087522588qqqq06<4yxCJLLKAMMRRRRRRRR",
"RRRRRRRRZCDDCnchu7->8eryttttytrq7547qrrytyee8qpcCHLKGCMmRRRRRRRR",
"RRRRRRRRGGLKFVnlu7*>quuiuuuuuuye8658eyuiuuyteedvCGLKGZMmRRRRRRRR",
"RRRRRRRRLLUPGCnli7*;quuiuuuuiuue0568euuuuuuteedvVGKLGSNNRRRRRRRR",
"RRRRRRRRPLUPGCnli7*-7rrtttttyyrw8558wryyttte00pxCHLLLGAZRRRRRRRR",
"RRRRRRRRLLIPFCnku7$*178qqqqwww08656680wqww07<5uxVJPUYLGDRRRRRRRR",
"RRRRRRRRLKILFVnkp7$+*<135777666565556666766<&-tlBGPUYIJJRRRRRRRR",
"RRRRRRRRLKILGCNza7@.%--><22444224545444233<-o&ejNSJPUPJGRRRRRRRR",
"RRRRRRRRLKUUHDVvf8+ %->>,,<<222222<22222<,<=#=0fvBSDJDAARRRRRRRR",
"RRRRRRRRLLUYUHSngqX &<<<,<>135523><<2542<>>-&,0pkvmBCBmmRRRRRRRR",
"RRRRRRRRLKUYULFNjq. -552<>><2553<>><2552<>>>:<0ydjzvvvzzRRRRRRRR",
"RRRRRRRRGGLUPKFMhqX -553<;;><553>>><2352<>---,8yfjzcvzkkRRRRRRRR",
"RRRRRRRRCCFGFDVnf8+.=<2<<<1<<32<<1<<<222<<<:&:8pjvmmmvzlRRRRRRRR",
"RRRRRRRRnnNVBMnki7%+*<<3<<5<<<<<3322<<<<<23-@%8gvBZSCNnvRRRRRRRR",
"RRRRRRRRlzcnvckfy5&%*><<5551<><<2332<>>1<55- owhNDGHFCmmRRRRRRRR",
"RRRRRRRRlzccczhar3*$*;>,<541<;>><352>;;>255*  qkBGLLJSNNRRRRRRRR",
"RRRRRRRRnnMMmckfr3+.X+#%-->***%-><<-*##%---o  9kVLLLHCNNRRRRRRRR",
"RRRRRRRRZZSSVMvgu3      .@#@XXX#*=*#    .#@   6jCHPPHZmnRRRRRRRR",
"RRRRRRRRJJLJSBvki5    .X@$%$$#%%*=*%+..X+$#   8jBGLLHCNmRRRRRRRR",
"RRRRRRRRLLUIGZmlaq><6qw08777877633578qq08871-,tlNDGHGSNNRRRRRRRR",
"RRRRRRRRIPUUGVmzfurudhhhfaiipaiurryifjjfdaiuyudlmCSFHDSARRRRRRRR",
"RRRRRRRRIIUIDCmzgdfjvMNmczkkllkgfffkvNNmvzjjlllcvnNSJLGJRRRRRRRR",
"RRRRRRRRLLUPDCmckjknCDFSVNbnnmnclfknVDFSVNnnnnnvzzvBJPKPRRRRRRRR",
"RRRRRRRRDJLLDZNnckcMSKLHSZVVCVVmczcMSKLJDVBVCCBnzjlMDKJJRRRRRRRR",
"RRRRRRRRCCADDAZNvzcBDLILHDSSGDSBvzcNDLPPHDDDDDSBvkkvVSAARRRRRRRR",
"RRRRRRRRzcmZSGDZmzcNSLLLJGGGJHGVmzcMDKIPLHGGHHFCmzjznmvvRRRRRRRR",
"RRRRRRRRuplNSGLSmzzmZHLLLLLLLLGZmzzmAJLLLKLLLLHSMvjhjhssRRRRRRRR",
"RRRRRRRR18avCGGCbkkvVDKJGGGHHHDCvkkvCDJGGGGJHHDCmzfapyeqRRRRRRRR",
"RRRRRRRR*<tjmVVNzfflNCSSAZVCZZVnkffkvBZZCCCCZZVncfpur975RRRRRRRR",
"RRRRRRRR;1wdlcvldyygcnBNnvvvvvcksytsjcvvvvvvbbvkfirqq854RRRRRRRR",
"RRRRRRRR<<8tpddie8qpjxczjfsdffsieq8risfgfdddffsitq776655RRRRRRRR",
"RRRRRRRR358qeee84,5epfhditwwrre864168wrrrrerrrw97<,36656RRRRRRRR",
"RRRRRRRRq8wq9765::28eppyr9777775<:,<578897979875<,,58q0qRRRRRRRR",
"RRRRRRRRytyr951<,,46qwewq86653<<<,<2556777776654<,<8ettyRRRRRRRR",
"RRRRRRRRuuiyq5<<<44468777655354444445555576565542<5wyiiuRRRRRRRR",
"RRRRRRRRiuiue8766656445<<45566786656555544155555568wyiuiRRRRRRRR",
"RRRRRRRRtrypuytrewq008765<58etytewqqqq8755<568qw0qweyittRRRRRRRR",
"RRRRRRRR80ypddddiyertrwq546epdfdiyrrtrrw8448qetttttyytq0RRRRRRRR",
"RRRRRRRR<5wpgjlhdiyuiuuw846tdhlhdiutiite8550eyiiiiyteq54RRRRRRRR",
"RRRRRRRR&:8ydkjhdiyuuuuw646ysjkgdiuiuiue8668eyiiiiye05<<RRRRRRRR",
"RRRRRRRRR-6radfdpytettrw646epdfdiyrrrtrw8558wrtyuttw04,RRRRRRRRR",
"RRRRRRRRRRReyyuyewq0wqq8646qeyyyew00ww8865668qwwwww87RRRRRRRRRRR",
"RRRRRRRRRRRR0800866666665446688876666666554556688766RRRRRRRRRRRR",
"RRRRRRRRRRRR<<444444444454644<<<44444445455544445544RRRRRRRRRRRR",
"RRRRRRRRRRRR,,244<44444455442<,<<244<444455444445444RRRRRRRRRRRR"
};
