/* XPM */
static char *result[] = {
/* columns rows colors chars-per-pixel */
"128 128 8 1 ",
"  c #907228",
". c #9E7E2C",
"X c #6E8929",
"o c #7A982E",
"O c #A89438",
"+ c #85A733",
"@ c #C29A37",
"# c #9FBA42",
/* pixels */
"++++++++########XXXXXXXXoooooooo++++++++########XXXXXXXXoooooooo++++++++########XXXXXXXXoooooooo++++++++########XXXXXXXXoooooooo",
"++++++++########XXXXXXXXoooooooo++++++++########XXXXXXXXoooooooo++++++++########XXXXXXXXoooooooo++++++++########XXXXXXXXoooooooo",
"++++++++########XXXXXXXXoooooooo++++++++########XXXXXXXXoooooooo++++++++########XXXXXXXXoooooooo++++++++########XXXXXXXXoooooooo",
"++++++++########XXXXXXXXoooooooo++++++++########XXXXXXXXoooooooo++++++++########XXXXXXXXoooooooo++++++++########XXXXXXXXoooooooo",
"++++++++########XXXXXXXXoooooooo++++++++########XXXXXXXXoooooooo++++++++########XXXXXXXXoooooooo++++++++########XXXXXXXXoooooooo",
"++++++++########XXXXXXXXoooooooo++++++++########XXXXXXXXoooooooo++++++++########XXXXXXXXoooooooo++++++++########XXXXXXXXoooooooo",
"########++++++++ooooooooXXXXXXXX########++++++++ooooooooXXXXXXXX########++++++++ooooooooXXXXXXXX########++++++++ooooooooXXXXXXXX",
"########++++++++ooooooooXXXXXXXX########++++++++ooooooooXXXXXXXX########++++++++ooooooooXXXXXXXX########++++++++ooooooooXXXXXXXX",
"########++++++++ooooooooXXXXXXXX########++++++++ooooooooXXXXXXXX########++++++++ooooooooXXXXXXXX########++++++++ooooooooXXXXXXXX",
"########++++++++ooooooooXXXXXXXX########++++++++ooooooooXXXXXXXX########++++++++ooooooooXXXXXXXX########++++++++ooooooooXXXXXXXX",
"########++++++++ooooooooXXXXXXXX########++++++++ooooooooXXXXXXXX########++++++++ooooooooXXXXXXXX########++++++++ooooooooXXXXXXXX",
"########++++++++ooooooooXXXXXXXX########++++++++ooooooooXXXXXXXX########++++++++ooooooooXXXXXXXX########++++++++ooooooooXXXXXXXX",
"########++++++++ooooooooXXXXXXXX########++++++++ooooooooXXXXXXXX########++++++++ooooooooXXXXXXXX########++++++++ooooooooXXXXXXXX",
"########++++++++ooooooooXXXXXXXX########++++++++ooooooooXXXXXXXX########++++++++ooooooooXXXXXXXX########++++++++ooooooooXXXXXXXX",
"XXXXXXXXooooooooXXXXXXXXooooooooXXXXXXXXooooooooXXXXXXXXooooooooXXXXXXXXooooooooXXXXXXXXooooooooXXXXXXXXooooooooXXXXXXXXoooooooo",
"XXXXXXXXooooooooXXXXXXXXooooooooXXXXXXXXooooooooXXXXXXXXooooooooXXXXXXXXooooooooXXXXXXXXooooooooXXXXXXXXooooooooXXXXXXXXoooooooo",
"XXXXXXXXooooooooXXXXXXXXooooooooXXXXXXXXooooooooXXXXXXXXooooooooXXXXXXXXooooooooXXXXXXXXooooooooXXXXXXXXooooooooXXXXXXXXoooooooo",
"XXXXXXXXooooooooXXXXXXXXooooooooXXXXXXXXooooooooXXXXXXXXooooooooXXXXXXXXooooooooXXXXXXXXooooooooXXXXXXXXooooooooXXXXXXXXoooooooo",
"XXXXXXXXooooooooXXXXXXXXooooooooXXXXXXXXooooooooXXXXXXXXooooooooXXXXXXXXooooooooXXXXXXXXooooooooXXXXXXXXooooooooXXXXXXXXoooooooo",
"XXXXXXXXooooooooXXXXXXXXooooooooXXXXXXXXooooooooXXXXXXXXooooooooXXXXXXXXooooooooXXXXXXXXooooooooXXXXXXXXooooooooXXXXXXXXoooooooo",
"XXXXXXXXooooooooXXXXXXXXooooooooXXXXXXXXooooooooXXXXXXXXooooooooXXXXXXXXooooooooXXXXXXXXooooooooXXXXXXXXooooooooXXXXXXXXoooooooo",
"XXXXXXXXooooooooXXXXXXXXooooooooXXXXXXXXooooooooXXXXXXXXooooooooXXXXXXXXooooooooXXXXXXXXooooooooXXXXXXXXooooooooXXXXXXXXoooooooo",
"ooooooooXXXXXXXXooooooooXXXXXXXXooooooooXXXXXXXXooooooooXXXXXXXXooooooooXXXXXXXXooooooooXXXXXXXXooooooooXXXXXXXXooooooooXXXXXXXX",
"ooooooooXXXXXXXXooooooooXXXXXXXXooooooooXXXXXXXXooooooooXXXXXXXXooooooooXXXXXXXXooooooooXXXXXXXXooooooooXXXXXXXXooooooooXXXXXXXX",
"ooooooooXXXXXXXXooooooooXXXXXXXXooooooooXXXXXXXXooooooooXXXXXXXXooooooooXXXXXXXXooooooooXXXXXXXXooooooooXXXXXXXXooooooooXXXXXXXX",
"ooooooooXXXXXXXXooooooooXXXXXXXXooooooooXXXXXXXXooooooooXXXXXXXXooooooooXXXXXXXXooooooooXXXXXXXXooooooooXXXXXXXXooooooooXXXXXXXX",
"ooooooooXXXXXXXXooooooooXXXXXXXXooooooooXXXXXXXXooooooooXXXXXXXXooooooooXXXXXXXXooooooooXXXXXXXXooooooooXXXXXXXXooooooooXXXXXXXX",
"ooooooooXXXXXXXXooooooooXXXXXXXXooooooooXXXXXXXXooooooooXXXXXXXXooooooooXXXXXXXXooooooooXXXXXXXXooooooooXXXXXXXXooooooooXXXXXXXX",
"ooooooooXXXXXXXXooooooooXXXXXXXXooooooooXXXXXXXXooooooooXXXXXXXXooooooooXXXXXXXXooooooooXXXXXXXXooooooooXXXXXXXXooooooooXXXXXXXX",
"ooooooooXXXXXXXXooooooooXXXXXXXXooooooooXXXXXXXXooooooooXXXXXXXXooooooooXXXXXXXXooooooooXXXXXXXXooooooooXXXXXXXXooooooooXXXXXXXX",
"++++++++########XXXXXXXXoooooooo++++++++########XXXXXXXXoooooooo++++++++########XXXXXXXXoooooooo++++++++########XXXXXXXXoooooooo",
"++++++++########XXXXXXXXoooooooo++++++++########XXXXXXXXoooooooo++++++++########XXXXXXXXoooooooo++++++++########XXXXXXXXoooooooo",
"++++++++########XXXXXXXXoooooooo++++++++########XXXXXXXXoooooooo++++++++########XXXXXXXXoooooooo++++++++########XXXXXXXXoooooooo",
"++++++++########XXXXXXXXoooooooo++++++++########XXXXXXXXoooooooo++++++++########XXXXXXXXoooooooo++++++++########XXXXXXXXoooooooo",
"++++++++########XXXXXXXXoooooooo++++++++########XXXXXXXXoooooooo++++++++########XXXXXXXXoooooooo++++++++########XXXXXXXXoooooooo",
"++++++++########XXXXXXXXoooooooo++++++++########XXXXXXXXoooooooo++++++++########XXXXXXXXoooooooo++++++++########XXXXXXXXoooooooo",
"++++++++########XXXXXXXXoooooooo++++++++########XXXXXXXXoooooooo++++++++########XXXXXXXXoooooooo++++++++########XXXXXXXXoooooooo",
"++++++++########XXXXXXXXoooooooo++++++++########XXXXXXXXoooooooo++++++++########XXXXXXXXoooooooo++++++++########XXXXXXXXoooooooo",
"########++++++++ooooooooXXXXXXXX########++++++++ooooooooXXXXXXXX########++++++++ooooooooXXXXXXXX########++++++++ooooooooXXXXXXXX",
"########++++++++ooooooooXXXXXXXX########++++++++ooooooooXXXXXXXX########++++++++ooooooooXXXXXXXX########++++++++ooooooooXXXXXXXX",
"########++++++++ooooooooXXXXXXXX########++++++++ooooooooXXXXXXXX########++++++++ooooooooXXXXXXXX########++++++++ooooooooXXXXXXXX",
"########++++++++ooooooooXXXXXXXX########++++++++ooooooooXXXXXXXX########++++++++ooooooooXXXXXXXX########++++++++ooooooooXXXXXXXX",
"########++++++++ooooooooXXXXXXXX########++++++++ooooooooXXXXXXXX########++++++++ooooooooXXXXXXXX########++++++++ooooooooXXXXXXXX",
"########++++++++ooooooooXXXXXXXX########++++++++ooooooooXXXXXXXX########++++++++ooooooooXXXXXXXX########++++++++ooooooooXXXXXXXX",
"########++++++++ooooooooXXXXXXXX########++++++++ooooooooXXXXXXXX########++++++++ooooooooXXXXXXXX########++++++++ooooooooXXXXXXXX",
"########++++++++ooooooooXXXXXXXX########++++++++ooooooooXXXXXXXX########++++++++ooooooooXXXXXXXX########++++++++ooooooooXXXXXXXX",
"XXXXXXXXooooooooXXXXXXXXooooooooXXXXXXXXooooooooXXXXXXXXooooooooXXXXXXXXooooooooXXXXXXXXooooooooXXXXXXXXooooooooXXXXXXXXoooooooo",
"XXXXXXXXooooooooXXXXXXXXooooooooXXXXXXXXooooooooXXXXXXXXooooooooXXXXXXXXooooooooXXXXXXXXooooooooXXXXXXXXooooooooXXXXXXXXoooooooo",
"XXXXXXXXooooooooXXXXXXXXooooooooXXXXXXXXooooooooXXXXXXXXooooooooXXXXXXXXooooooooXXXXXXXXooooooooXXXXXXXXooooooooXXXXXXXXoooooooo",
"XXXXXXXXooooooooXXXXXXXXooooooooXXXXXXXXooooooooXXXXXXXXooooooooXXXXXXXXooooooooXXXXXXXXooooooooXXXXXXXXooooooooXXXXXXXXoooooooo",
"XXXXXXXXooooooooXXXXXXXXooooooooXXXXXXXXooooooooXXXXXXXXooooooooXXXXXXXXooooooooXXXXXXXXooooooooXXXXXXXXooooooooXXXXXXXXoooooooo",
"XXXXXXXXooooooooXXXXXXXXooooooooXXXXXXXXooooooooXXXXXXXXooooooooXXXXXXXXooooooooXXXXXXXXooooooooXXXXXXXXooooooooXXXXXXXXoooooooo",
"XXXXXXXXooooooooXXXXXXXXooooooooXXXXXXXXooooooooXXXXXXXXooooooooXXXXXXXXooooooooXXXXXXXXooooooooXXXXXXXXooooooooXXXXXXXXoooooooo",
"XXXXXXXXooooooooXXXXXXXXooooooooXXXXXXXXooooooooXXXXXXXXooooooooXXXXXXXXooooooooXXXXXXXXooooooooXXXXXXXXooooooooXXXXXXXXoooooooo",
"ooooooooXXXXXXXXooooooooXXXXXXXXooooooooXXXXXXXXooooooooXXXXXXXXooooooooXXXXXXXXooooooooXXXXXXXXooooooooXXXXXXXXooooooooXXXXXXXX",
"ooooooooXXXXXXXXooooooooXXXXXXXXooooooooXXXXXXXXooooooooXXXXXXXXooooooooXXXXXXXXooooooooXXXXXXXXooooooooXXXXXXXXooooooooXXXXXXXX",
"ooooooooXXXXXXXXooooooooXXXXXXXXooooooooXXXXXXXXooooooooXXXXXXXXooooooooXXXXXXXXooooooooXXXXXXXXooooooooXXXXXXXXooooooooXXXXXXXX",
"ooooooooXXXXXXXXooooooooXXXXXXXXooooooooXXXXXXXXooooooooXXXXXXXXooooooooXXXXXXXXooooooooXXXXXXXXooooooooXXXXXXXXooooooooXXXXXXXX",
"ooooooooXXXXXXXXooooooooXXXXXXXXooooooooXXXXXXXXooooooooXXXXXXXXooooooooXXXXXXXXooooooooXXXXXXXXooooooooXXXXXXXXooooooooXXXXXXXX",
"ooooooooXXXXXXXXooooooooXXXXXXXXooooooooXXXXXXXXooooooooXXXXXXXXooooooooXXXXXXXXooooooooXXXXXXXXooooooooXXXXXXXXooooooooXXXXXXXX",
"ooooooooXXXXXXXXooooooooXXXXXXXXooooooooXXXXXXXXooooooooXXXXXXXXooooooooXXXXXXXXooooooooXXXXXXXXooooooooXXXXXXXXooooooooXXXXXXXX",
"ooooooooXXXXXXXXooooooooXXXXXXXXooooooooXXXXXXXXooooooooXXXXXXXXooooooooXXXXXXXXooooooooXXXXXXXXooooooooXXXXXXXXooooooooXXXXXXXX",
"++++++++########XXXXXXXXoooooooo++++++++########XXXXXXXXoooooooo++++++++########XXXXXXXXoooooooo++++++++########XXXXXXXXoooooooo",
"++++++++########XXXXXXXXoooooooo++++++++########XXXXXXXXoooooooo++++++++########XXXXXXXXoooooooo++++++++########XXXXXXXXoooooooo",
"++++++++########XXXXXXXXoooooooo++++++++########XXXXXXXXoooooooo++++++++########XXXXXXXXoooooooo++++++++########XXXXXXXXoooooooo",
"++++++++########XXXXXXXXoooooooo++++++++########XXXXXXXXoooooooo++++++++########XXXXXXXXoooooooo++++++++########XXXXXXXXoooooooo",
"++++++++########XXXXXXXXoooooooo++++++++########XXXXXXXXoooooooo++++++++########XXXXXXXXoooooooo++++++++########XXXXXXXXoooooooo",
"++++++++########XXXXXXXXoooooooo++++++++########XXXXXXXXoooooooo++++++++########XXXXXXXXoooooooo++++++++########XXXXXXXXoooooooo",
"++++++++########XXXXXXXXoooooooo++++++++########XXXXXXXXoooooooo++++++++########XXXXXXXXoooooooo++++++++########XXXXXXXXoooooooo",
"++++++++########XXXXXXXXoooooooo++++++++########XXXXXXXXoooooooo++++++++########XXXXXXXXoooooooo++++++++########XXXXXXXXoooooooo",
"########++++++++ooooooooXXXXXXXX########++++++++ooooooooXXXXXXXX########++++++++ooooooooXXXXXXXX########++++++++ooooooooXXXXXXXX",
"########++++++++ooooooooXXXXXXXX########++++++++ooooooooXXXXXXXX########++++++++ooooooooXXXXXXXX########++++++++ooooooooXXXXXXXX",
"########++++++++ooooooooXXXXXXXX########++++++++ooooooooXXXXXXXX########++++++++ooooooooXXXXXXXX########++++++++ooooooooXXXXXXXX",
"########++++++++ooooooooXXXXXXXX########++++++++ooooooooXXXXXXXX########++++++++ooooooooXXXXXXXX########++++++++ooooooooXXXXXXXX",
"########++++++++ooooooooXXXXXXXX########++++++++ooooooooXXXXXXXX########++++++++ooooooooXXXXXXXX########++++++++ooooooooXXXXXXXX",
"########++++++++ooooooooXXXXXXXX########++++++++ooooooooXXXXXXXX########++++++++ooooooooXXXXXXXX########++++++++ooooooooXXXXXXXX",
"########++++++++ooooooooXXXXXXXX########++++++++ooooooooXXXXXXXX########++++++++ooooooooXXXXXXXX########++++++++ooooooooXXXXXXXX",
"########++++++++ooooooooXXXXXXXX########++++++++ooooooooXXXXXXXX########++++++++ooooooooXXXXXXXX########++++++++ooooooooXXXXXXXX",
"XXXXXXXXooooooooXXXXXXXXooooooooXXXXXXXXooooooooXXXXXXXXooooooooXXXXXXXXooooooooXXXXXXXXooooooooXXXXXXXXooooooooXXXXXXXXoooooooo",
"XXXXXXXXooooooooXXXXXXXXooooooooXXXXXXXXooooooooXXXXXXXXooooooooXXXXXXXXooooooooXXXXXXXXooooooooXXXXXXXXooooooooXXXXXXXXoooooooo",
"XXXXXXXXooooooooXXXXXXXXooooooooXXXXXXXXooooooooXXXXXXXXooooooooXXXXXXXXooooooooXXXXXXXXooooooooXXXXXXXXooooooooXXXXXXXXoooooooo",
"XXXXXXXXooooooooXXXXXXXXooooooooXXXXXXXXooooooooXXXXXXXXooooooooXXXXXXXXooooooooXXXXXXXXooooooooXXXXXXXXooooooooXXXXXXXXoooooooo",
"XXXXXXXXooooooooXXXXXXXXooooooooXXXXXXXXooooooooXXXXXXXXooooooooXXXXXXXXooooooooXXXXXXXXooooooooXXXXXXXXooooooooXXXXXXXXoooooooo",
"XXXXXXXXooooooooXXXXXXXXooooooooXXXXXXXXooooooooXXXXXXXXooooooooXXXXXXXXooooooooXXXXXXXXooooooooXXXXXXXXooooooooXXXXXXXXoooooooo",
"XXXXXXXXooooooooXXXXXXXXooooooooXXXXXXXXooooooooXXXXXXXXooooooooXXXXXXXXooooooooXXXXXXXXooooooooXXXXXXXXooooooooXXXXXXXXoooooooo",
"XXXXXXXXooooooooXXXXXXXXooooooooXXXXXXXXooooooooXXXXXXXXooooooooXXXXXXXXooooooooXXXXXXXXooooooooXXXXXXXXooooooooXXXXXXXXoooooooo",
"ooooooooXXXXXXXXooooooooXXXXXXXXooooooooXXXXXXXXooooooooXXXXXXXXooooooooXXXXXXXXooooooooXXXXXXXXooooooooXXXXXXXXooooooooXXXXXXXX",
"ooooooooXXXXXXXXooooooooXXXXXXXXooooooooXXXXXXXXooooooooXXXXXXXXooooooooXXXXXXXXooooooooXXXXXXXXooooooooXXXXXXXXooooooooXXXXXXXX",
"ooooooooXXXXXXXXooooooooXXXXXXXXooooooooXXXXXXXXooooooooXXXXXXXXooooooooXXXXXXXXooooooooXXXXXXXXooooooooXXXXXXXXooooooooXXXXXXXX",
"ooooooooXXXXXXXXooooooooXXXXXXXXooooooooXXXXXXXXooooooooXXXXXXXXooooooooXXXXXXXXooooooooXXXXXXXXooooooooXXXXXXXXooooooooXXXXXXXX",
"ooooooooXXXXXXXXooooooooXXXXXXXXooooooooXXXXXXXXooooooooXXXXXXXXooooooooXXXXXXXXooooooooXXXXXXXXooooooooXXXXXXXXooooooooXXXXXXXX",
"ooooooooXXXXXXXXooooooooXXXXXXXXooooooooXXXXXXXXooooooooXXXXXXXXooooooooXXXXXXXXooooooooXXXXXXXXooooooooXXXXXXXXooooooooXXXXXXXX",
"ooooooooXXXXXXXXooooooooXXXXXXXXooooooooXXXXXXXXooooooooXXXXXXXXooooooooXXXXXXXXooooooooXXXXXXXXooooooooXXXXXXXXooooooooXXXXXXXX",
"ooooooooXXXXXXXXooooooooXXXXXXXXooooooooXXXXXXXXooooooooXXXXXXXXooooooooXXXXXXXXooooooooXXXXXXXXooooooooXXXXXXXXooooooooXXXXXXXX",
"++++++++########XXXXXXXXoooooooo++++++++########XXXXXXXXoooooooo++++++++########XXXXXXXXoooooooo++++++++########XXXXXXXXoooooooo",
"++++++++########XXXXXXXXoooooooo++++++++########XXXXXXXXoooooooo++++++++########XXXXXXXXoooooooo++++++++########XXXXXXXXoooooooo",
"++++++++########XXXXXXXXoooooooo++++++++########XXXXXXXXoooooooo++++++++########XXXXXXXXoooooooo++++++++########XXXXXXXXoooooooo",
"++++++++########XXXXXXXXoooooooo++++++++########XXXXXXXXoooooooo++++++++########XXXXXXXXoooooooo++++++++########XXXXXXXXoooooooo",
"++++++++########XXXXXXXXoooooooo++++++++########XXXXXXXXoooooooo++++++++########XXXXXXXXoooooooo++++++++########XXXXXXXXoooooooo",
"++++++++########XXXXXXXXoooooooo++++++++########XXXXXXXXoooooooo++++++++########XXXXXXXXoooooooo++++++++########XXXXXXXXoooooooo",
"++++++++########XXXXXXXXoooooooo++++++++########XXXXXXXXoooooooo++++++++########XXXXXXXXoooooooo++++++++########XXXXXXXXoooooooo",
"++++++++########XXXXXXXXoooooooo++++++++########XXXXXXXXoooooooo++++++++########XXXXXXXXoooooooo++++++++########XXXXXXXXoooooooo",
"########++++++++ooooooooXXXXXXXX########++++++++ooooooooXXXXXXXX########++++++++ooooooooXXXXXXXX########++++++++ooooooooXXXXXXXX",
"########++++++++ooooooooXXXXXXXX########++++++++ooooooooXXXXXXXX########++++++++ooooooooXXXXXXXX########++++++++ooooooooXXXXXXXX",
"########++++++++ooooooooXXXXXXXX########++++++++ooooooooXXXXXXXX########++++++++ooooooooXXXXXXXX########++++++++ooooooooXXXXXXXX",
"########++++++++ooooooooXXXXXXXX########++++++++ooooooooXXXXXXXX########++++++++ooooooooXXXXXXXX########++++++++ooooooooXXXXXXXX",
"########++++++++ooooooooXXXXXXXX########++++++++ooooooooXXXXXXXX########++++++++ooooooooXXXXXXXX########++++++++ooooooooXXXXXXXX",
"########++++++++ooooooooXXXXXXXX########++++++++ooooooooXXXXXXXX########++++++++ooooooooXXXXXXXX########++++++++ooooooooXXXXXXXX",
"########++++++++ooooooooXXXXXXXX########++++++++ooooooooXXXXXXXX########++++++++ooooooooXXXXXXXX########++++++++ooooooooXXXXXXXX",
"########++++++++ooooooooXXXXXXXX########++++++++ooooooooXXXXXXXX########++++++++ooooooooXXXXXXXX########++++++++ooooooooXXXXXXXX",
"XXXXXXXXooooooooXXXXXXXXooooooooXXXXXXXXooooooooXXXXXXXXooooooooXXXXXXXXooooooooXXXXXXXXooooooooXXXXXXXXooooooooXXXXXXXXoooooooo",
"XXXXXXXXooooooooXXXXXXXXooooooooXXXXXXXXooooooooXXXXXXXXooooooooXXXXXXXXooooooooXXXXXXXXooooooooXXXXXXXXooooooooXXXXXXXXoooooooo",
"XXXXXXXXooooooooXXXXXXXXooooooooXXXXXXXXooooooooXXXXXXXXooooooooXXXXXXXXooooooooXXXXXXXXooooooooXXXXXXXXooooooooXXXXXXXXoooooooo",
"XXXXXXXXooooooooXXXXXXXXooooooooXXXXXXXXooooooooXXXXXXXXooooooooXXXXXXXXooooooooXXXXXXXXooooooooXXXXXXXXooooooooXXXXXXXXoooooooo",
"XXXXXXXXooooooooXXXXXXXXooooooooXXXXXXXXooooooooXXXXXXXXooooooooXXXXXXXXooooooooXXXXXXXXooooooooXXXXXXXXooooooooXXXXXXXXoooooooo",
"XXXXXXXXooooooooXXXXXXXXooooooooXXXXXXXXooooooooXXXXXXXXooooooooXXXXXXXXooooooooXXXXXXXXooooooooXXXXXXXXooooooooXXXXXXXXoooooooo",
"XXXXXXXXooooooooXXXXXXXXooooooooXXXXXXXXooooooooXXXXXXXXooooooooXXXXXXXXooooooooXXXXXXXXooooooooXXXXXXXXooooooooXXXXXXXXoooooooo",
"XXXXXXXXooooooooXXXXXXXXooooooooXXXXXXXXooooooooXXXXXXXXooooooooXXXXXXXXooooooooXXXXXXXXooooooooXXXXXXXXooooooooXXXXXXXXoooooooo",
"ooooooooXXXXXXXXooooooooXXXXXXXXooooooooXXXXXXXXooooooooXXXXXXXXooooooooXXXXXXXXooooooooXXXXXXXXooooooooXXXXXXXXooooooooXXXXXXXX",
"ooooooooXXXXXXXXooooooooXXXXXXXXooooooooXXXXXXXXooooooooXXXXXXXXooooooooXXXXXXXXooooooooXXXXXXXXooooooooXXXXXXXXooooooooXXXXXXXX",
"ooooooooXXXXXXXXooooooooXXXXXXXXooooooooXXXXXXXXooooooooXXXXXXXXooooooooXXXXXXXXooooooooXXXXXXXXooooooooXXXXXXXXooooooooXXXXXXXX",
"ooooooooXXXXXXXXooooooooXXXXXXXXooooooooXXXXXXXXooooooooXXXXXXXXooooooooXXXXXXXXooooooooXXXXXXXXooooooooXXXXXXXXooooooooXXXXXXXX",
"ooooooooXXXXXXXXooooooooXXXXXXXXooooooooXXXXXXXXooooooooXXXXXXXXooooooooXXXXXXXXooooooooXXXXXXXXooooooooXXXXXXXXooooooooXXXXXXXX",
"ooooooooXXXXXXXXooooooooXXXXXXXXooooooooXXXXXXXXooooooooXXXXXXXXooooooooXXXXXXXXooooooooXXXXXXXXooooooooXXXXXXXXooooooooXXXXXXXX",
"ooooooooXXXXXXXXooooooooXXXXXXXXooooooooXXXXXXXXooooooooXXXXXXXXooooooooXXXXXXXXooooooooXXXXXXXXooooooooXXXXXXXXooooooooXXXXXXXX",
"ooooooooXXXXXXXXooooooooXXXXXXXXooooooooXXXXXXXXooooooooXXXXXXXXooooooooXXXXXXXXooooooooXXXXXXXXooooooooXXXXXXXXooooooooXXXXXXXX",
"        @@@@@@@@        ........        ........        ........        ........        ........        ........OOOOOOOO........",
"        @@@@@@@@        ........        ........        ........        ........        ........        ........OOOOOOOO........"
};
