/* XPM */
static char *result[] = {
/* columns rows colors chars-per-pixel */
"64 64 238 2 ",
"   c black",
".  c #0C0A0C",
"X  c #1F0000",
"o  c #11141F",
"O  c #07161A",
"+  c #2A0202",
"@  c #2B120D",
"#  c #100D2F",
"$  c #161B2D",
"%  c #181B2F",
"&  c #141826",
"*  c #040036",
"=  c #161C32",
"-  c #181C33",
";  c #171C3B",
":  c #181C3A",
">  c #151539",
",  c #0C0F2E",
"<  c #0E2221",
"1  c #0C2E39",
"2  c #4A1C10",
"3  c #0A0044",
"4  c #0E0049",
"5  c #020049",
"6  c #110A43",
"7  c #120D4C",
"8  c #11034A",
"9  c #141444",
"0  c #161944",
"q  c #13124A",
"w  c #191E4A",
"e  c #150051",
"r  c #1A1D54",
"t  c #1B1E5A",
"y  c #151F52",
"u  c #0B1943",
"i  c #1C2347",
"p  c #1B215B",
"a  c #1A2555",
"s  c #222B4E",
"d  c #222E55",
"f  c #212B5D",
"g  c #253259",
"h  c #1C0665",
"j  c #24126F",
"k  c #1F2661",
"l  c #222A64",
"z  c #242C6A",
"x  c #242769",
"c  c #25316C",
"v  c #27376A",
"b  c #273373",
"n  c #2B3576",
"m  c #273E72",
"M  c #293C74",
"N  c #2D3379",
"B  c #2D3B7A",
"V  c #303E74",
"C  c #34277A",
"Z  c #551177",
"A  c #6C0069",
"S  c #731567",
"D  c #682C74",
"F  c #00585F",
"G  c #114E51",
"H  c #29484C",
"J  c #2C5554",
"K  c #315C5E",
"L  c #294E50",
"P  c #2A4174",
"I  c #2B4576",
"U  c #314274",
"Y  c #32437A",
"T  c #2F516D",
"R  c #34686C",
"E  c #3B6C71",
"W  c #357377",
"Q  c #1D6C78",
"!  c #5B4844",
"~  c #604543",
"^  c #5F447E",
"/  c #72527D",
"(  c #43787C",
")  c #616666",
"_  c #970034",
"`  c #A11534",
"'  c #8B064E",
"]  c #972F4E",
"[  c #A22C43",
"{  c #802F65",
"}  c #95445D",
"|  c #96546B",
" . c #8C5775",
".. c #897275",
"X. c #151083",
"o. c #271682",
"O. c #290A81",
"+. c #2A2785",
"@. c #2E3286",
"#. c #29398A",
"$. c #313E83",
"%. c #333687",
"&. c #02328A",
"*. c #463583",
"=. c #334285",
"-. c #354B84",
";. c #34458A",
":. c #39478A",
">. c #364B8B",
",. c #394B8B",
"<. c #384E87",
"1. c #3A538E",
"2. c #355C8C",
"3. c #355489",
"4. c #3B4D93",
"5. c #364491",
"6. c #3C5393",
"7. c #355A92",
"8. c #3F5499",
"9. c #3F5A9A",
"0. c #385A93",
"q. c #2E498F",
"w. c #39618D",
"e. c #3D6194",
"r. c #3C629B",
"t. c #3F6E9E",
"y. c #376698",
"u. c #3F709F",
"i. c #2B629D",
"p. c #3C79A4",
"a. c #134791",
"s. c #41569B",
"d. c #415A9D",
"f. c #405D94",
"g. c #4F528A",
"h. c #446C9A",
"j. c #436596",
"k. c #43729D",
"l. c #49769B",
"z. c #4A7B9C",
"x. c #477799",
"c. c #437588",
"v. c #787797",
"b. c #6D6E91",
"n. c #445DA2",
"m. c #4564A5",
"M. c #456BA5",
"N. c #4665A8",
"B. c #466DA9",
"V. c #4968AC",
"C. c #4375A3",
"Z. c #447AA3",
"A. c #4673AA",
"S. c #4975AC",
"D. c #4679AC",
"F. c #497CAD",
"G. c #4B79A4",
"H. c #4576B2",
"J. c #4A75B1",
"K. c #4B7DB1",
"L. c #467CB1",
"P. c #4F70AC",
"I. c #8B7183",
"U. c #3B82A6",
"Y. c #3B84B7",
"T. c #3D8191",
"R. c #4A878C",
"E. c #4C819D",
"W. c #4B8A93",
"Q. c #4D9497",
"!. c #539294",
"~. c #54969B",
"^. c #508F91",
"/. c #6B9096",
"(. c #4A84AE",
"). c #4D85A7",
"_. c #538DA3",
"`. c #5B86AC",
"'. c #548DAA",
"]. c #5284AB",
"[. c #5591A5",
"{. c #5694AA",
"}. c #5996AB",
"|. c #5A9BAC",
" X c #589AA6",
".X c #4C85B2",
"XX c #4D8BB4",
"oX c #4989B6",
"OX c #528DB2",
"+X c #528BB3",
"@X c #5292B5",
"#X c #5699B5",
"$X c #5A9DB5",
"%X c #5394B9",
"&X c #599EBA",
"*X c #5897B6",
"=X c #4F90A3",
"-X c #6D90A8",
";X c #5DA4AD",
":X c #5CA4A8",
">X c #46ABB1",
",X c #5DA3B5",
"<X c #5CADB4",
"1X c #5CA4B9",
"2X c #5FAABA",
"3X c #56A3BB",
"4X c #5DB1B6",
"5X c #5DB4BC",
"6X c #4FB1B7",
"7X c #60A9AF",
"8X c #69A3AD",
"9X c #62ACB4",
"0X c #62ADB9",
"qX c #64A6B4",
"wX c #64B1B7",
"eX c #66B3B9",
"rX c #68B6BC",
"tX c #69B9BD",
"yX c #67B7BC",
"uX c #75B6BC",
"iX c #5DA4C0",
"pX c #6BBBC2",
"aX c #66B0C1",
"sX c #74B6C0",
"dX c #9E9290",
"fX c #818194",
"gX c #90AEB1",
"hX c #ABA6A5",
"jX c #81BCC1",
"kX c #B4D4D7",
"lX c #A6CACE",
"zX c #8EC2C7",
"xX c #D1D3D3",
"cX c #D9EAEC",
"vX c #E0F0F2",
"bX c #F1F5F6",
"nX c #EEEBEB",
"mX c None",
/* pixels */
"mXmXmXmXmXmXmXmXmXmXmXmXmXmXmXmXmXmXmXmXmXmXmXmXmXmXmXmXmXmXmXmXmXmXmXmXmXmXmXmXmXmXmXmXmXmXmXmXmXmXmXmXmXmXmXmXmXmXmXmXmXmXmXmX",
"mXmXmXmXmXmXmXmXmXmXmXmXmXmXmXmXmXmXmXmXmXmXmXmXmXmXmXmXmXmXmXmXmXmXmXmXmXmXmXmXmXmXmXmXmXmXmXmXmXmXmXmXmXmXmXmXmXmXmXmXmXmXmXmX",
"mXmXmXmXmXmXmXmXmXmXmXmXmXmXmXmXmXmXmXmXmXmXmXmXmXmXmXmXmXmXmXmXmXmXmXmXmXmXmXmXmXmXmXmXmXmXmXmXmXmXmXmXmXmXmXmXmXmXmXmXmXmXmXmX",
"mXmXmXmXmXmXmXmXmXmXmXmXmXmXmXmXmXmXmXmXmXmXmXmXmXmXmXmXmXmXmXmXmXmXmXmXmXmXmXmXmXmXmXmXmXmXmXmXmXmXmXmXmXmXmXmXmXmXmXmXmXmXmXmX",
"mXmXmXmXmXmXmXmXmXmXmXmXmXmXmXmXmXmXmXmXmXmXmXmXmXmXmXmXmXmXmXmXmXmXmXmXmXmXmXmXmXmXmXmXmXmXmXmXmXmXmXmXmXmXmXmXmXmXmXmXmXmXmXmX",
"mXmXmXmXmXmXmXmXmXmXmXmXmXmXmXmXmXmXmXmXmXmXmXmXmXmXmXmXmXmXmXmXmXmXmXmXmXmXmXmXmXmXmXmXmXmXmXmXmXmXmXmXmXmXmXmXmXmXmXmXmXmXmXmX",
"mXmXmXmXmXmXmXmXmXmXmXmXmXmXmXmXmXmXmXmXmXmXmXmXmXmXmXmXmXmXmXmXmXmXmXmXmXmXmXmXmXmXmXmXmXmXmXmXmXmXmXmXmXmXmXmXmXmXmXmXmXmXmXmX",
"mXmXmXmXmXmXmXmXmXmXmXmXmXmXmXmXmXmXmXmXmXmXmXmXmXmXmXmXmXmXmXmXmXmXmXmXmXmXmXmXmXmXmXmXmXmXmXmXmXmXmXmXmXmXmXmXmXmXmXmXmXmXmXmX",
"mXmXmXmXmXmXmXmXmXmXmXmXmXmXmXmXmX7 8 8 4 3 3 3 3 3 3 5 3 3 3 5 3 3 3 3 5 3 3 3 3 3 * 3 3 3 3 mXmXmXmXmXmXmXmXmXmXmXmXmXmXmXmXmX",
"mXmXmXmXmXmXmXmXmXmXmXmXmXmXmXmXt t t p p p p p p p p t a p p p p p p p p p p p p p p p p p a y mXmXmXmXmXmXmXmXmXmXmXmXmXmXmXmX",
"mXmXmXmXmXmXmXmXmXmXmXmXmXmXmXmXx z b M M M M P m m m m m m M m m m m m m m m m m P M P I P v v mXmXmXmXmXmXmXmXmXmXmXmXmXmXmXmX",
"mXmXmXmXmXmXmXmXmXmXmXmXmXmXmXx c N =.,.3.2.2.w.2.2.2.3.2.2.2.2.2.2.2.2.2.2.2.7.2.2.2.7.y.2.3.I P mXmXmXmXmXmXmXmXmXmXmXmXmXmXmX",
"mXmXmXmXmXmXmXmXmXmXmXmXmX5 t x N $.s.f.t.u.k.u.u.u.u.t.t.t.t.t.t.t.t.t.t.t.t.t.t.t.t.p.C.t.y.w.I d u mXmXmXmXmXmXmXmXmXmXmXmXmX",
"mXmXmXmXmXmXmXmXmXmXmXmX6 r l B $.s.s.M.C.(.XXoX(.(.(.(.(..X(.(.(.(.(.(.(.(.(.(.(.(..X.X.X.XD.h.3.v a * mXmXmXmXmXmXmXmXmXmXmXmX",
"mXmXmXmXmXmXmXmXmXmXmXmXt l B ;.6.d.B.J.(..XoX%X@X@X@X@X@XOX@X@X@X@X@X@XoX@X@X@X@X@XXX%X%X%XXXZ.y.=.k 8 mXmXmXmXmXmXmXmXmXmXmXmX",
"mXmXmXmXmXmXmXmXmXmXmXz x n ;.9.m.B.S.K..XXX%X%X%X#X&X&X&X&X&X3X&X&X#X&X3X&X&X&X&X&X&X3XiXiX*X.XC.5.b h j mXmXmXmXmXmXmXmXmXmXmX",
"mXmXmXmXmXmXmXmXmXp x b N $.6.m.M.S.F..X.X.XoX%X&X1X1X2X1X0X1X1X1XqX1XqX1X0XqXqX1X2X1X9X0X0X$X'.C.s.@.h j k r mXmXmXmXmXmXmXmXmX",
"mXmXmXmXmXmXmXmX7 p z N ;.4.d.B.S.(.XXXX.X.XXX#X,X9XwXwX0X0XwX0X0XwX0X9X0X0X0X9X9X0X0XeXaXwXqX*XG.m.s.@.b z t 7 mXmXmXmXmXmXmXmX",
"mXmXmXmXmXmXmXmX8 p b ;.4.d.B.S.(..XXXXXXXXX@X,X2X9XeXeXwXwXwXeXrXeXeXeXwXeXwXwXeXeXeXrXyXeX0X$X*XG.s.4.=.b t 3 mXmXmXmXmXmXmXmX",
"mXmXmXmXmXmXmXmX4 p M >.d.M.S..X.X+X@X@X@X#X$X1X0XwXyXeX4X4X4X4XeXrXtXtXeXeXeXeXeXeXeXeXtXtXrXqX$X`.P.j.7.M r 5 mXmXmXmXmXmXmXmX",
"mXmXmXmXmXmXmXmX4 p M 3.h.D.K.oXXXXXXX#X#X,X2X9X0XwXwX<X>X>X>X6X5XyXpXpXeXeXeXeXeXwXeXtXtXtXtXrX0XqX{.z.w.P a * mXmXmXmXmXmXmXmX",
"mXmXmXmXmXmXmXmX3 p M 2.t.F.+XoX(.XXXX#X,X2X0XwXwXwXwXwX<X<X<XeX4XrXrXwXeXeX9XeXwXeX9XeXeXeXyXyXrX0X7X_.c.T a * mXmXmXmXmXmXmXmX",
"mXmXmXmXmXmXmXmX* p P w.C.(.@X%XXXXXXX*X,XwXeXeXwXwXeXtXuXjXuXuXuX8X<X,X<XeXeXeXeXeXeX9X9XqX7X9XrXrXqX Xx.T l 5 mXmXmXmXmXmXmXmX",
"mXmXmXmXmXmXmXmX* a m w.k.XXoX%XoX.XOX*X<XeXeXeX4X9XuXzXkXkXkXlXgX XQ.Q.:X9XeXeXeXeX9X8X~.!.~.:X9XrXeX|.z.3.n h j mXmXmXmXmXmXmX",
"mXmXmXmXmXmXmXmX* y v 2.k.XXXXoX.X.XXX@X1XwXwX4X>X<XuXkXcXvXvXxXgX/.R Q ~.<XeXtXrXeX9X XR.( ( R.7XeXeX$X).f.$.j x k t mXmXmXmXmX",
"mXmXmXmXmXmXmXmX* a P 2.u.(.XX@X.XoX@X#X1X0XwX4X>X4XsXkXvXbXbXxXdX) H F W.;XyXtXpXrX<X!.R H L E ~.qXqX&X].m.8.@.N z t 7 mXmXmXmX",
"mXmXmXmXmXmXmXmXe l P w.C..XXX@XXXXX@X$X1X0XwX4X>X4XjXkXcXnXnXxXdX! @ G R.;XeXpXpXrX8X^.K < < K ^.7X0XqX+XP.9.5.$.b t 4 mXmXmXmX",
"mXmXmXmXmXmXmXz x M -.y.Z..XXX%X@X#X$X1X0XwXeXwX6XeXuXlXxXxXxXhX..2 X G R.;XyXpXpXrX;XR.H     J ^.7XrX0X*XK.M.8.>.b k 4 mXmXmXmX",
"mXmXmXmXmXt k b N :.9.M.C.(.XX#X#X,X1X9XwXyXyXtXyXyXuXgXgXhXdX..~ +   G R.;XyXpXpXtX7XR.H     J !.7XtXeX&X+XS.9.>.M p 4 mXmXmXmX",
"mXmXmXmX7 t z N $.6.n.B.D..XOX#X,X9XwXeXeXeXeXrXpXyX7X:X^.) ! 2 + O 1 R Q.;XpXpXpXeX7X^.K < < K !.7XeXrX&XOXF.t.2.m p 3 mXmXmXmX",
"mXmXmXmX7 p b $.4.s.n.B.D..X@X$X1XwXwXeX9X9X9X9XwX0X;X^.( H + X   1 J ( ~.<XeXpXpXeX7X!.E L H R W.8X9X0X3X@X(.u.2.m p 3 mXmXmXmX",
"mXmXmXmX7 t N ;.4.n.N.P.D..XXX3X9XeXeX9X;X}.'.{.}.}.=Xu.Q G G G G R ( !. X4XyXpXpXeX9X:X^.( ( c.W._.'.%X@X@X(.p.2.P p 3 mXmXmXmX",
"mXmXmXmX7 k b $.;.8.m.A.S..X@X$X9XeX9X;X_.z.h.j.k.z.z.W.W.W.^.Q.~.~.~.:XwXeXrXtXpXyXeX9X7X~.~.W.x.h.h.G.(.XXXXZ.w.P p 3 mXmXmXmX",
"mXmXmXmX7 p z $.,.8.m.B.D..X@X$X2XeX9X|.z.0.>.@.%.>.e.z.=X:X<X4X7X4X7XwXwXeXeXrXeXwXeXeXeXwX;X_.x.f.1.r.D.XXXXk.w.P p 5 mXmXmXmX",
"mXmXmXmX7 t c $.;.d.m.B.S..X@X3X0XwX9X|.E.j.;.+.o.@.>.k.=X,X2XeXwX2X4X2X9X9X9X9X9X9X9X9XeX9XqX{.x.0.6.r.D.XXXXZ.w.P p * mXmXmXmX",
"mXmXmXmX7 t z $.:.8.m.B.D.XX@X$X0XwX9X8X[.z.j.;.o.o.@.7.).#X,X3X,X;X$X|.{.}.{. X{.{.}.}.|.|.|.'.z.k.x.G.).XX(.Z.w.P p 5 mXmXmXmX",
"mXmXmXmX7 t b $.:.8.m.B.D.XX@X3X0XeXwX0X9X|._.h.,.+.+.#.y.u.U.U.U.p.p.p.z.z.l.z.z.l.l.l.k.l.z.z._. X{.#X#XXXXXu.w.P p 3 mXmXmXmX",
"mXmXmXmX7 t z $.5.8.m.A.D..X@X&X1X0XeXeXeX9X|._.l.:.@.+.q.6.7.7.7.7.7.6.7.6.1.1.6.7.7.,.;.,.f.z. X8X0X0X3X@X(.u.2.m p 3 mXmXmXmX",
"mXmXmXmX7 p c $.:.8.m.B.S.(.XX#X,X9XeXeXrXrX9X|.).j.>.%.*.*.*.*.*.*.%.*.*.%.%.#.@.@.%.%.@.:.e.).|.9X0XiX&X+XF.t.3.m p 3 mXmXmXmX",
"mXmXmXmX7 t c $.,.s.m.N.M.S.(.'.#X,X0XeXtXtXeX7X}._.z.g.^ D A A A A A Z Z o.o.X.O.O.+.=.1.j.z._.$XqX0X1X*X.XA.e.3.v t 4 mXmXmXmX",
"mXmXmXq q p b =.4.d.m.N.N.N.A.(.+X#X,X2XeXeXeXwX<X,X[.v./ ] ' _ ' ' ' S D *.o.X.X.o.$.e.z._.|.,X,X3X#X@X.XS.h.6.=.c r 4 q mXmXmX",
"mXmX: 0 q t c =.4.d.n.n.n.j.m.A.F..X@X,X2XwXwXyX4X2X8X/...} [ _ ` [ ] S D *.@.&.X.@.,.l._.,X9X9X$X#XXX.XS.N.9.:.Y c t 7 0 : mXmX",
"mX$ : 0 q t l B >.6.d.s.s.s.n.N.A.F.XX#X,X2XwXyX5XwXuX-XfX| ] [ [ ] }  .g.*.q.a.#.;.0.).|.9XwX1X#XXXF.A.B.n.s.;.B z r q 0 : $ mX",
"$ $ : ; > w l v Y :.4.s.s.n.n.n.m.A.F.XX|.3X2X2X5XeX8X-XfX..| | | |  .b.b.h.r.i.7.r.k.).$X2X2X,X@X(.A.m.m.n.8.:.$.z t q 0 : $ mX",
"$ $ : : > 0 a f v B =.6.n.n.n.N.m.N.A.(.XX#X$X3X3X3X$X-X-Xv.v.v.I.-Xv.v.P.F.D.p.A.D.).XX#X#X&X#X(.C.m.m.m.n.d.4.=.c t q 0 : $ mX",
"$ $ % $ mX: i i t x n =.8.n.n.n.n.n.m.A.(.XX@X@X@X@X@X+X].].`.`.`.`.`..X].XX.X.X.X.X.XXX@X@XXX(.A.M.d.d.n.n.d.4.=.c p q 0 : mXmX",
"- = % mXmXmX- 9 > 7 l M :.8.d.n.9.d.m.M.S..X.XXX.X.X.XoX(.XXoXoXoXoXoXoXoX.XXX.XXXoXXXXXXXoX(.S.V.n.d.s.d.s.8.>.M l t q 0 - mXmX",
"= = - mXmXmXmX# * 6 w v Y :.,.s.8.s.n.N.B.S.K.F.H.D.L.L.L.Y.Y.Y.Y.Y.Y.oX.X.X.X.X.X.X.XK.F.D.S.B.m.n.s.s.s.4.>.B v f w 9 ; : % mX",
"= % = % mXmXmX= > > i f g U Y 1.6.n.N.V.V.J.S.S.P.J.J.J.H.H.H.L.H.H.H.K.K.J.J.J.J.J.J.P.J.S.S.V.V.V.n.s.4.=.B v f f 0 : : = $ $ ",
"% % = = = mX= = > ; : : : s v -.1.d.N.V.V.N.N.N.N.N.m.m.N.N.N.N.N.m.N.N.N.N.V.M.V.M.V.N.N.N.N.N.N.n.n.s.=.n l r i 0 : mX$ $ = = ",
"mXmXmXmXmXmX% % mXmXmXmXmXmXs U 1.8.d.d.n.s.s.s.s.s.d.s.s.s.s.s.9.9.f.s.s.s.s.s.d.d.f.s.s.s.d.d.n.d.4.:.M l r 6 > : mXmXmXmXmXmX",
"mXmXmXmXmX= = % mXmXmXmXmXmX% g Y >.1.g.5.:.:.:.:.:.:.:.<.:.:.:.;.;.:.:.:.:.:.:.:.:.:.:.:.:.,.,.6.1.<.B v r 6 * # & mXmXmXmXmXmX",
"mXmXmXmXmX= % % % % & o . o - d v U U U Y V V V V V M V V V V V U V V V V V V V V V V V V V U Y Y U U v d w > # = $ mXmXmXmXmXmX",
"mXmXmXmXmXmX= = % % % % & & % i s d g g d d d d d d d d d d d d d d d d d d d d d d d d d d d d g g d s s : : = = = mXmXmXmXmXmX",
"mXmXmXmXmXmXmXmXmXmXmXmXmXmXmXmXmXmXmXmXmXmXmXmXmXmXmXmXmXmXmXmXmXmXmXmXmXmXmXmXmXmXmXmXmXmXmXmXmXmXmXmXmXmXmXmXmXmXmXmXmXmXmXmX",
"mXmXmXmXmXmXmXmXmXmXmXmXmXmXmXmXmXmXmXmXmXmXmXmXmXmXmXmXmXmXmXmXmXmXmXmXmXmXmXmXmXmXmXmXmXmXmXmXmXmXmXmXmXmXmXmXmXmXmXmXmXmXmXmX",
"mXmXmXmXmXmXmXmXmXmXmXmXmXmXmXmXmXmXmXmXmXmXmXmXmXmXmXmXmXmXmXmXmXmXmXmXmXmXmXmXmXmXmXmXmXmXmXmXmXmXmXmXmXmXmXmXmXmXmXmXmXmXmXmX",
"mXmXmXmXmXmXmXmXmXmXmXmXmXmXmXmXmXmXmXmXmXmXmXmXmXmXmXmXmXmXmXmXmXmXmXmXmXmXmXmXmXmXmXmXmXmXmXmXmXmXmXmXmXmXmXmXmXmXmXmXmXmXmXmX",
"mXmXmXmXmXmXmXmXmXmXmXmXmXmXmXmXmXmXmXmXmXmXmXmXmXmXmXmXmXmXmXmXmXmXmXmXmXmXmXmXmXmXmXmXmXmXmXmXmXmXmXmXmXmXmXmXmXmXmXmXmXmXmXmX",
"mXmXmXmXmXmXmXmXmXmXmXmXmXmXmXmXmXmXmXmXmXmXmXmXmXmXmXmXmXmXmXmXmXmXmXmXmXmXmXmXmXmXmXmXmXmXmXmXmXmXmXmXmXmXmXmXmXmXmXmXmXmXmXmX",
"mXmXmXmXmXmXmXmXmXmXmXmXmXmXmXmXmXmXmXmXmXmXmXmXmXmXmXmXmXmXmXmXmXmXmXmXmXmXmXmXmXmXmXmXmXmXmXmXmXmXmXmXmXmXmXmXmXmXmXmXmXmXmXmX",
"mXmXmXmXmXmXmXmXmXmXmXmXmXmXmXmXmXmXmXmXmXmXmXmXmXmXmXmXmXmXmXmXmXmXmXmXmXmXmXmXmXmXmXmXmXmXmXmXmXmXmXmXmXmXmXmXmXmXmXmXmXmXmXmX",
"mXmXmXmXmXmXmXmXmXmXmXmXmXmXmXmXmXmXmXmXmXmXmXmXmXmXmXmXmXmXmXmXmXmXmXmXmXmXmXmXmXmXmXmXmXmXmXmXmXmXmXmXmXmXmXmXmXmXmXmXmXmXmXmX",
"mXmXmXmXmXmXmXmXmXmXmXmXmXmXmXmXmXmXmXmXmXmXmXmXmXmXmXmXmXmXmXmXmXmXmXmXmXmXmXmXmXmXmXmXmXmXmXmXmXmXmXmXmXmXmXmXmXmXmXmXmXmXmXmX"
};
