/* XPM */
static char *result[] = {
/* columns rows colors chars-per-pixel */
"64 64 236 2 ",
"   c #010100",
".  c #0C0401",
"X  c #070A01",
"o  c #0A0C01",
"O  c #150301",
"+  c #140A03",
"@  c #1A0D05",
"#  c #0C1201",
"$  c #1A1405",
"%  c #141C01",
"&  c #090F15",
"*  c #2F0507",
"=  c #270B02",
"-  c #281505",
";  c #25150A",
":  c #2A170B",
">  c #2C1B0D",
",  c #361B03",
"<  c #321C0C",
"1  c #291813",
"2  c #331E11",
"3  c #391C18",
"4  c #1C2402",
"5  c #1E2809",
"6  c #192815",
"7  c #252806",
"8  c #38250A",
"9  c #263204",
"0  c #2C3806",
"q  c #36380B",
"w  c #352112",
"e  c #3C2414",
"r  c #312F18",
"t  c #3C2A18",
"y  c #04022D",
"u  c #211A32",
"i  c #3B362A",
"p  c #460800",
"a  c #471C05",
"s  c #472804",
"d  c #522B02",
"f  c #483805",
"g  c #563405",
"h  c #412617",
"j  c #432A16",
"k  c #472B16",
"l  c #442A19",
"z  c #492E1B",
"x  c #542C15",
"c  c #483716",
"v  c #4C321D",
"b  c #573915",
"n  c #51351F",
"m  c #633F18",
"M  c #473728",
"N  c #523621",
"B  c #563923",
"V  c #593C24",
"C  c #563D2C",
"Z  c #5A3C2A",
"A  c #503D32",
"S  c #663D25",
"D  c #3A4B07",
"F  c #384609",
"G  c #394617",
"H  c #374A11",
"J  c #344B21",
"K  c #494D0F",
"L  c #5A4603",
"P  c #43550B",
"I  c #48590C",
"U  c #485816",
"Y  c #555A14",
"T  c #6C4911",
"R  c #4E630C",
"E  c #51660E",
"W  c #546B0E",
"Q  c #566D0F",
"!  c #576714",
"~  c #5B7312",
"^  c #5F7814",
"/  c #616B17",
"(  c #647A16",
")  c #5E402B",
"_  c #504D2B",
"`  c #485A26",
"'  c #535C28",
"]  c #5A4637",
"[  c #65442E",
"{  c #6D532C",
"}  c #694A34",
"|  c #714E38",
" . c #75523C",
".. c #7A543D",
"X. c #4E6327",
"o. c #556826",
"O. c #556B26",
"+. c #52662A",
"@. c #556B29",
"#. c #596E2A",
"$. c #5D7526",
"%. c #55732B",
"&. c #5B722A",
"*. c #5C7330",
"=. c #6B682B",
"-. c #647B29",
";. c #617832",
":. c #647B33",
">. c #011051",
",. c #0E274F",
"<. c #313051",
"1. c #001A6E",
"2. c #0B3372",
"3. c #2D3E6C",
"4. c #4D3F46",
"5. c #2B4579",
"6. c #4D4755",
"7. c #5C5358",
"8. c #7B5943",
"9. c #665750",
"0. c #78644C",
"q. c #786A58",
"w. c #7C7457",
"e. c #4E4D6F",
"r. c #6A697B",
"t. c #746B75",
"y. c #82573C",
"u. c #835B43",
"i. c #895D44",
"p. c #896147",
"a. c #8C634A",
"s. c #94684B",
"d. c #946B55",
"f. c #9B6E52",
"g. c #8C7058",
"h. c #A06E52",
"j. c #A27356",
"k. c #A57659",
"l. c #A97658",
"z. c #AC7B5D",
"x. c #B17D5E",
"c. c #8A7A64",
"v. c #977965",
"b. c #957879",
"n. c #A77A61",
"m. c #B17F60",
"M. c #6A8514",
"N. c #6C8817",
"B. c #728E16",
"V. c #728E1A",
"C. c #769418",
"Z. c #7C9C1A",
"A. c #6B8428",
"S. c #738D2E",
"D. c #799625",
"F. c #83A41C",
"G. c #86A91C",
"H. c #8AAD1D",
"J. c #8EB21D",
"K. c #91B51E",
"L. c #94BA1E",
"P. c #819E2E",
"I. c #87A825",
"U. c #8EB220",
"Y. c #92B621",
"T. c #95BB22",
"R. c #99BE25",
"E. c #95B82B",
"W. c #99BD2B",
"Q. c #86A336",
"!. c #8FB031",
"~. c #99BA36",
"^. c #9BC027",
"/. c #9EC32C",
"(. c #9FC233",
"). c #A1C62F",
"_. c #A2C633",
"`. c #A5CA34",
"'. c #A6CB39",
"]. c #A9CE3A",
"[. c #ACD13D",
"{. c #96846B",
"}. c #9B8972",
"|. c #AA8568",
" X c #B48362",
".X c #B4886A",
"XX c #AF8D71",
"oX c #A5947B",
"OX c #A9967C",
"+X c #B89678",
"@X c #BB9A7B",
"#X c #C29D7F",
"$X c #AFD440",
"%X c #013884",
"&X c #15488F",
"*X c #2A4F93",
"=X c #395799",
"-X c #1658A8",
";X c #005DB7",
":X c #2C5CA5",
">X c #0061BE",
",X c #1B63B8",
"<X c #3463AE",
"1X c #2A66B7",
"2X c #455992",
"3X c #5A6795",
"4X c #7B7988",
"5X c #697191",
"6X c #737B95",
"7X c #4A6CAC",
"8X c #5B7AB8",
"9X c #677BAC",
"0X c #1568C2",
"qX c #817C89",
"wX c #837E91",
"eX c #78819B",
"rX c #7A86A8",
"tX c #8D8A95",
"yX c #A99985",
"uX c #B89D82",
"iX c #B8A386",
"pX c #BDA68A",
"aX c #BEAA8D",
"sX c #BFAA90",
"dX c #8B92A6",
"fX c #979AA6",
"gX c #8B95B0",
"hX c #9BA0B0",
"jX c #A7ABB5",
"kX c #A6AAB7",
"lX c #C5A789",
"zX c #C1AB8E",
"xX c #C3AE91",
"cX c #C5B194",
"vX c #CBB597",
"bX c #D3BC9B",
/* pixels */
"Y.Y.T.R.).`.`.).^.L.B.I $                         F A.^.E.Z.P #         7 R D.^._.`._.).Y.Y.Y.E.).).`.).E.K.K.J.H.U.H.H.W.Y.J.H.",
"Y.L.T.^.`.].].`.R.L.B.P %                         q A.W.E.V.D #         % P V.Y.'.].].`.R.Y.L.Y.`.].]._.R.Y.K.J.H.H.H.H./.Y.H.K.",
"L.T.T.^.`.].].`.R.L.B.P % . @ : > w w w > > 1 ; ; q ! V.M.^ K t > ; @ X # 0 E N.P.D.D.D.Z.G.U.E.`.].]._.Y.Y.K.K.H.H.H.H.W.Y.K.K.",
"T.L.L.^.).`.`.).R.K.B.I % + > t z v v v v l t e w w q q q K K v v e ; X   % 9 F F H q H ! C.U.E.)._._.).E.Y.Y.Y.U.H.H.H.R.L.K.K.",
"L.L.K.Y.R.W.^.R.T.J.V.P % @ w z B V V B V N v l t 2 @   + 2 z B B v w +               X 0 ( G.L.T.R.E.T.L.L.L.L.U.U.H.U.E.T.L.L.",
"Y.K.Y.K.T.T.R.T.J.I.V.I % + : t v N B C V V V N z t 2 ; ; e v V V v t ; + $ : > > > 2 > q I M.Z.G.H.K.K.L.T.L.L.K.K.Y.K.L.L.T.L.",
"K.K.U.K.L.L.L.L.T.J.C.R 4   . @ : w l N V V V V N z t 2 > h N V B v h 2 2 w h v z N N l l q q I ( F.H.K.T.L.T.T.K.Y.K.Y.L.Y.L.T.",
"K.U.U.U.L.L.T.L.U.G.V.P %         $ w z B V V V N N z h t l v B B n l t t z N B V V V B z e $ # D ( G.L.L.T.L.T.T.E.T.E.K.L.L.L.",
"J.H.H.U.U.K.U.G.Z.M.E F w $ @ @ @ > t v V V V V V N N z z v N B B N v z v N N V V [ V V n v w ; q R N.Z.G.J.Y.E.)._.`.`.J.J.H.J.",
"G.U.G.H.J.U.G.N.I F 9 8 > 2 e t h l N N B V V B V B N N N N B B B B N n n B B V V V V B B B v j t q F R N.F.U.T._.].].].H.H.G.G.",
"I.J.J.H.Y.U.Z.E 9 X @ : 3 h z v B V B B V B B V V B V N B B V B B B B B B B B B B B V B b ) V n l < + 4 R B.J.T.`.].].].U.H.G.H.",
"J.J.G.F.I.Z.( F $ ; > e k z N B V V V V V B B B V B B V V V B B B V V V V V V B V B V B n [ V V N l w : F Q B.I.E._.`.`.Y.U.J.H.",
"J.U.G.V.^ U G 8 w < t z v N B B V V V V V V B V B B V B B B B B B V V V V V B V V B V V V V V V B N z t q c P E B.I.R.E.W.Y.K.K.",
"U.J.F.^ F X @ ; 2 h z v N B V B V V B V B B B B B B B B V B B V B B B B V V V B V B n V B V B V V V V v l > + 9 W C.Y.Y.).T.L.L.",
"Y.U.Z.! 7   @ : e j v n B V V V V N B B N N B B B V V B B B V V B B N N n v n n n n n n n V V V b ) ) n l < . % I C.K.U.).R.L.L.",
"T.T.Z.Q 9   @ : e h v n B V ) V V B N v v v n N B B B B B V B V B N N v l j e 8 8 k k v n n V V ) ) ) n l > . 4 R F.K.L.^.L.L.L.",
"R.T.G.Q 9   @ > w j z N N V V V V V v l h l N N B V V B B B V V B n z l e 2 < 2 e k v n B B V V V ) V N j 7 . 5 W F.L.L.T.Y.L.K.",
"^.T.G.Q 9   @ > 3 h z z N N N B N N N h t h z N B V V V V B V V B v h e h N Z [ } } | | } Z N v n b V B z w ; $ D ( Z.H.K.K.K.K.",
"^.T.G.Q 9   @ > e t z z z z v v z v l h t h z N B V V V B V V V N k : = l [ 8.p.s.s.s.a.y.[ z , 8 v B B v l w w q D I ~ B.G.J.U.",
"R.T.F.Q 9   @ : e t h h h h h h h h t h h l z N B V V B B B V V n j = : N 8.s.k.m.z.z.k.s. .z - , v B B v z e 2 - @ o F Q F.H.H.",
"T.T.F.Q 9   @ > w h h h h h h h e e 3 e e l z N V V V V B B n n B N N )  .a.j.x. X X Xx.h.p.| Z N V N N v v h e > @   4 R Z.H.H.",
"J.K.Z.Q 0   @ : e h z v N N v l h e < - - < k N V V V V B z 8 , l [ 8.a.f.j.l.z.z.x.z.x.l.h.d.p...} B j j j j e > @   7 R C.G.H.",
"Y.J.Z.~ 0   @ : 3 h z N N N N z h e < < < < l n B V V V B k , - z | s.k.z.x.x.l.l.l.l.l.l.x.n.j.a. .N > , t e 3 > @   9 W C.H.G.",
"K.T.Z.~ 9   @ : 2 t z N V V N z l z N Z Z [ Z N N n N B V B n n } ..s.j.n.m.m.|..X.X.X X|.m.z.d.p.} l = - e h e 2 @   9 W C.G.H.",
"T.K.G.~ 0   @ : 2 h z N B V n n z B } u.i.u.| Z e < h v ) {  .y.u.u...8.a.v.|.+X@XiX@X+XXXv.a.8.Z z 2 @ : e h e < @   9 R C.H.H.",
"K.^.G.~ 0   @ 1 e t z N B V n b v [ u.f.k.f.u.Z < = , k ) ..s.h.h.i.S l 9.g.oXaXcXcXxXpXoXg.} = . . . @ < t j t 2 @   9 E Z.J.J.",
"T.L.G.~ 0   @ > 3 h z z n n n c v [ i.j.m.l.s.8.Z k 8 s ) ..k..Xm.d.B   i w.yXsXvXbXvXaXOXq.i         . ; 2 e w > ; 5 U ( G.K.L.",
"T.Y.F.W 9   @ > t h z z z v v k n } i.j.m.m.l.f.i.} x * j ..{.+X+Xv.]   u q.OXsXvXbXvXzXOXq.i         . ; : > w K Y -.D.Z.E././.",
"J.H.Z.E 5   $ > e h k h h l k k v [ u.f.z.x.m.x.j.a.[ * e 8.oXiXiX}.}   r q.oXaXvXvXvXpXoXq.i         & . + + 7 Y P.~.].(._.'.'.",
"J.H.Z.~ D 4 - > 2 e t e e t e h c [ u.f.l. Xm. Xm.j.p.} 9.c.yXsXaXyXw.6.9.c.OXaXcXvXcXzXOX{.9.i 1 1 +       # F N.~.[.[._.].[.[.",
"J.J.F.C.M.W P q w < w e h h h < j Z u.f.z. X Xx.x.n.{.v.{.oXiXsXsXiX}.{.{.oXiXaXcXcXcXzXiXOX}.{.0.6.r   4 F R N.!._.[.[.(.].].[.",
"J.I.H.J.J.G.N.D % @ : 2 e h e , , Z 8.f.z. Xm.x.z..X+XuXiXaXsXsXaXaXiXiXiXpXaXxXzXxXzXaXxXxXaXyX{.q.i # D ( F.Y.)._.`.`.(._.`.'.",
"J.T.K.T.K.K.F.^ F $ @ - e e 3 - > N  .a.j.l.l.l.m..X@XlXzXzXxXxXsXcXcXcXcXcXzXzXxXxXsXsXxXvXcXlXXXq.i % R C.U.Y.^.^.^.^.^./.W./.",
"T.L.T.L.T.J.H.Z.M.R F q > < < < 3 N Z | u.s.h.j.m..X.X+XuXpXsXxXsXcXcXcXvXcXcXxXxXxXxXxXcXlXlX@X|.0.M # I V.U.U.T.T.L.^.Y.Y.E.U.",
"T.^.T.T.J.U.J.Y.J.Z.^ q # = > 2 h l l z B | a.j.m.m.m.m.m.+XuXlXcXcXcXcXcXcXxXxXxXxXxXxXlXlX.Xm.d.8.t o D V.J.J.L.L.L.L.K.K.J.J.",
"T.^.^.^.Y.T.T.K.L.L.Z.W 0 # @ 2 e e : O ; N  .d.k.m.l.l.m..X+XlXaXsXaXpXpXpXpXpXpXaXxXlX@XXXx.s...Z t 0 R V.J.T.Y.T.K.T.K.J.J.J.",
")._.`.).^.T.L.L.K.K.G.B.W P q q w > - O = z [  .i.d.h.l.m.m..X#X+X+X+X+X+X+X+X+X#X#X#X+XXXv.s.{ { { ! / B.G.K.L.U.J.J.J.K.L.L.L.",
"`.[.].`.^.L.L.T.K.K.J.J.F.N.W q $ ; : < e h l z Z 8.s.j.m.m..Xm. X X X X X X X Xm..X.X.Xk.a.[ t K ~ C.H.K.K.L.K.H.H.G.G.L.L.L.L.",
"`.].].`.^.^.T.T.U.J.J.U.J.F.M.D o + : 2 t e * O 3 Z u.f.n.n.n.k.n.n.n.n.n.n.|.k.k.n.l.h.a.} w X F M.G.K.T.^.L.L.U.H.G.H.L.^.L.L.",
").`.`.)./.^.^.R.T.T.U.J.J.Z.M.D o . ; e t e , O : x } y.a.d.v.b.b.b.b.b.b.b.b.v.b.d.a.y.{ z @ o D M.H.L.^.^.^.T.U.U.J.J.K.L.L.L.",
"^.^.^./.`.`.`.).^.L.L.L.J.G.^ F X + ; w h h e 2 8 k g m | q.b.4XtX6XwXwX6XwXwXqX4Xt.9.B s , = o D M.J.^.).`.`.).T.Y.T.L.K.K.K.J.",
"L.L.^.^.`.].].`.^.^.L.L.K.G.( F o . ; < t h h h h k s s A 7.r.5XeXeXeX6XeX6XrXeX5X7.4.* O .   o D M.J.^.`.].`.`.^.^.L.L.K.K.J.J.",
"L.L.^.^.].].].`.^.L.L.T.Y.G.M.F X     O * , h k z v s s A 7.5X6XeXeX6X6XeXdXgXdXtXr.6.1       o D M.J.^.`.[.].`.^.^.L.L.T.Y.K.Y.",
"L.L.L.^.`.].].`.^.^.L.L.K.H.N.D o       O * a k B b d d C 7.r.6XeX9X6X6X6XdXhXkXdXt.6.3 O     o D B.L.^.`.[.].`.^.T.L.L.^.E./.^.",
"K.K.L.J.L.L.L.^.`.`.'._.R.G.N.` i M M _ C C Z V V b g d Z 9.5X5X6XeX6XeXdXfXkXkXfXtX7.3 = = , t I ( F.K.J.J.J.J.K.K.Y.E./.(.(.'.",
"J.K.K.K.L.L.^./._.].~.I.V.-.:.w.w.c.c.c.c.q.0.} V d d d C 7.t.4XeXdXdXdXfXkXkXkXfXt.7.e a S | | =.=.( ( Z.H.L.L.K.U.Y.^.(.'.].[.",
"K.K.K.K.J.L.^.^.]._.!.( F _ 0.{.yXiXpXiX@XoXc.8.V s a d A 9.r.4XeXdXfXfXjXkXkXkXfX4X7.j g y.s.h.p.} n D ~ Z.J.L.K.J.Y./.(.[.$X[.",
"K.K.K.L.J.K.^.^.(.(.D.U # M w.oXaXvXvXvXcXiX}.q.V p p x ] 7.r.4XeXdXhXkXkXkXkXkXfXt.6.8 T s.x.x.f. .t o D B.J.L.J.K.T./.'.[.$X$X",
"L.^.L.K.J.J.J.T.W.E.D.D X _ w.yXcXvXbXbXbXpXXX0.L p p d Z 7.3X3X9X8XrXgXgXgXgXgXeX3X4.k T h.z. Xk.8.t o D N.H.K.K.K.T.).`.[.[.[.",
"L.L.L.K.J.G.G.J.K.J.C.P # M c.yXcXvXbXbXvXiX}...g p p d Z 6.2X7X8X8X8X8X8X8X8X8X7Xe.<.k T s.x. Xh. .t # H N.H.J.L.K.L.).`.].[.[.",
"L.T.L.K.J.G.G.J.J.J.B.R % i q.}.yXsXcXsXzXyX{.8.4.a d g 6.e.=X<X0X,X0X1X0X0X0X1X-X2.<.k T s.k.k.s.| t 5 U V.U.U.L.L.L.).`.`.[.[.",
"T.L.T.K.J.H.J.J.J.J.Z.~ F _ 9.w.{.yXyXyXyXtX4X5Xe.*Xe.e.e.=X=X-X;X;X>X>X>X>X>X>X;X2.,.h g y.p.p.8.) i G ^ I.E.E.L.K.L.^.).`.`.].",
"L.T.T.J.J.J.J.J.J.J.Z.N.X.' ' ' | 9.r.r.5X3X7X=X<X<X<X<X=X<X*X*X*X-X,X,X1X0X0X1X-X2.,.1 , x V ) _ _ ` *.S.!.~.~.L.K.L.L.^.).).).",
"U.J.J.J.L.L.K.Y.J.U.I.D.A.O.J $   y >.2.%X&X:X:X<X1X1X1X<X:X&X&X&X*X:X<X1X1X1X<X:X5.,.&         & J +.S.Q.~.$X'.^.K.J.L.L.T.R.^.",
"J.Y.Y.T.T.^.T.U.I.D.D.S.A.O.G %     >.>.1.%X*X=X=X<X=X-X&X&X2.2.2.*X*X*X=X2X2X2X5.3.,.&   # % 9 q J %.S.Q.Q.Q.~.E.K.J.J.K.L.L.L.",
"K.K.T.R././.W.I.D.A.$.A.$.X.G %   . y u <.<.6.e.e.e.e.3.2.1.,.,.,.<.<.<.e.e.e.e.7.<.u X X 5 r J ` X.%.$.:.A.S.Q.I.U.J.J.J.L.J.J.",
"K.L.T./.(._.~.Q.A.O.+.%.&.O.G 6   + - , 8 k b b b f 8 = .       O = , 8 s f b b b 8 - X 6 G X.$.&.&.&.#.*.+.*.A.D.I.K.J.J.J.H.H.",
"L.L.^.(.].$X~.Q.-.+.X.+.#.O.` J 6 7 q f f L L L L L f 8 7 4 4 4 , s s f g L L L L f q r i ` @.$.-.-.&.#.+.X.X.$.D.G.K.J.J.H.G.G.",
"L.L.T./.`.].(.D.A.+.+.+.#.O.X.` G ` ` ' o./ =./ / Y Y I K U U ` U U Y Y Y Y / / =.+.+.` ` X.%.&.&.$.&.@.+.` X.$.D.U.R.T.K.H.G.H.",
"J.K.Y././.`.~.Q.S.*.*.*.&.%.@.@.O.+.o.&.;.;.*.*.#.-.&.&.;.;.:.;.&.&.@.#.O.O.@.=.*.*.;.;.*.*.*.%.&.#.&.%.+.+.%.A.D.!./.W.T.J.H.H.",
"J.H.K.L.^.^.W.!.Q.Q.:.A.&.#.#.&.$.$.&.&.%.%.%.%.#.%.%.$.:.A.:.;.-.&.%.%.%.%.%.%.%.*.:.A.:.:.;.;.#.#.@.#.$.A.A.D.!./.)./.^.Y.Y.J.",
"H.H.H.J.L.L.R./.~.~.Q.S.A.&.@.@.#.&.@.@.%.@.@.O.@.#.&.&.&.&.-.&.@.O.O.O.O.$.%.%.O.%.&.*.:.:.:.:.&.@.O.$.A.D.I.E./.].[.).^.T.L.L.",
"G.G.G.J.J.K.T./.$X$X~.Q.A.#.@.@.#.O.@.@.+.+.+.o.@.@.&.@.$.#.$.#.@.+.O.O.#.#.$.#.%.O.@.*.:.:.:.:.#.+.@.-.V.Z.^./.'.[.[.]./.R.L.L.",
"G.G.G.H.J.L.T.~.~.$X~.Q.A.&.@.@.&.&.O.O.+.+.+.o.@.@.@.&.#.#.#.O.@.o.+.O.#.$.$.O.@.@.@.*.A.0.:.;.*.+.o.$.C.H.^./.'.[.[.]./.^.L.L."
};
