/* XPM */
static char *result[] = {
/* columns rows colors chars-per-pixel */
"64 64 232 2 ",
"   c #10001E",
".  c #0A1014",
"X  c #341716",
"o  c #3A2416",
"O  c #0F0028",
"+  c #361826",
"@  c #2C0033",
"#  c #351732",
"$  c #3E2427",
"%  c #3A2D34",
"&  c #42291C",
"*  c #4B3C17",
"=  c #4B351A",
"-  c #483131",
";  c #394818",
":  c #3E5015",
">  c #534E11",
",  c #5A5716",
"<  c #725E16",
"1  c #5F611A",
"2  c #687019",
"3  c #4D4C2F",
"4  c #545732",
"5  c #6B5727",
"6  c #5C6125",
"7  c #7A6C26",
"8  c #707632",
"9  c #8D670E",
"0  c #8A770A",
"q  c #95760A",
"w  c #8B7313",
"e  c #897B17",
"r  c #997C15",
"t  c #A37E06",
"y  c #A67F14",
"u  c #836D33",
"i  c #867437",
"p  c #6A851B",
"a  c #75871B",
"s  c #78941B",
"d  c #6A8523",
"f  c #768B27",
"g  c #8C840B",
"h  c #9B8708",
"j  c #8A8717",
"k  c #978917",
"l  c #8D961B",
"z  c #8E9A18",
"x  c #959C17",
"c  c #A98705",
"v  c #A5820C",
"b  c #B78E0D",
"n  c #A69507",
"m  c #B89808",
"M  c #AB8813",
"N  c #A29513",
"B  c #A89A15",
"V  c #B69616",
"C  c #8FA31B",
"Z  c #88A51C",
"A  c #87A91C",
"S  c #8AAD1D",
"D  c #91A31C",
"F  c #92AD1E",
"G  c #8EB417",
"H  c #8EB21D",
"J  c #91B51E",
"K  c #99B41B",
"L  c #94BA1E",
"P  c #9CBB1D",
"I  c #B7AE0F",
"U  c #A5A815",
"Y  c #A3BC1A",
"T  c #9E8527",
"R  c #8C9825",
"E  c #989A26",
"W  c #8D8A32",
"Q  c #978C38",
"!  c #A7972C",
"~  c #BE9E28",
"^  c #A19C31",
"/  c #B49632",
"(  c #87A523",
")  c #8CAE21",
"_  c #97A926",
"`  c #8EB221",
"'  c #92B621",
"]  c #9AB227",
"[  c #95BB22",
"{  c #99BE25",
"}  c #93B52A",
"|  c #96BA2A",
" . c #9ABE2A",
".. c #9CA836",
"X. c #95B532",
"o. c #97B735",
"O. c #9ABC34",
"+. c #9CBD39",
"@. c #A3A82A",
"#. c #B8A82A",
"$. c #A9B825",
"%. c #B8B82A",
"&. c #ACA532",
"*. c #BAAB31",
"=. c #A2BD31",
"-. c #B0B332",
";. c #C39B05",
":. c #C9A405",
">. c #CEAA01",
",. c #D0AB0C",
"<. c #C7B504",
"1. c #DAB704",
"2. c #CBA914",
"3. c #DDBC18",
"4. c #E3B903",
"5. c #E4BD08",
"6. c #E1BE1A",
"7. c #C5AA29",
"8. c #C7B726",
"9. c #D6B929",
"0. c #C6B430",
"q. c #E1BB31",
"w. c #9FC11D",
"e. c #ABC619",
"r. c #BAC411",
"t. c #B7C916",
"y. c #BCCC13",
"u. c #9BC027",
"i. c #9DC22C",
"p. c #9EC331",
"a. c #9FC138",
"s. c #A4C425",
"d. c #A1C52F",
"f. c #ACCC2E",
"g. c #A2C633",
"h. c #A5C934",
"j. c #A8CA37",
"k. c #A1C33B",
"l. c #A7CC38",
"z. c #A9CE3A",
"x. c #ACD13D",
"c. c #C4C50C",
"v. c #D8C907",
"b. c #C5D20F",
"n. c #D6D907",
"m. c #DBDC06",
"M. c #C6CE16",
"N. c #D9C712",
"B. c #C3D215",
"V. c #E6C703",
"C. c #EECA03",
"Z. c #F5CB03",
"A. c #F2CD0B",
"S. c #E8D503",
"D. c #E9DC01",
"F. c #F7D401",
"G. c #FFDB00",
"H. c #E9C91A",
"J. c #ECDF1C",
"K. c #F7D915",
"L. c #E9E307",
"P. c #F2E601",
"I. c #FEE401",
"U. c #FDEA00",
"Y. c #FEEC09",
"T. c #FFF201",
"R. c #FFFB02",
"E. c #FFFF0A",
"W. c #EDE316",
"Q. c #F8E519",
"!. c #FFFD14",
"~. c #CEC927",
"^. c #D7C727",
"/. c #E0C927",
"(. c #F6D626",
"). c #9D974A",
"_. c #9CB458",
"`. c #ADAD50",
"'. c #9B9960",
"]. c #A7BE64",
"[. c #A8BF65",
"{. c #A3B07D",
"}. c #D6BF50",
"|. c #AACA46",
" X c #AED341",
".X c #B1D349",
"XX c #B1D158",
"oX c #AAC264",
"OX c #ADC668",
"+X c #B5CF6B",
"@X c #B0C770",
"#X c #B4CB74",
"$X c #BAD177",
"%X c #BDD47A",
"&X c #F5D14B",
"*X c #D7C16E",
"=X c #C0D87C",
"-X c #A8B782",
";X c #B4B088",
":X c #AEB2A3",
">X c #B2B6A9",
",X c #C1BDA5",
"<X c #BBC79B",
"1X c #BCC99C",
"2X c #CBC78E",
"3X c #C4DC81",
"4X c #EED389",
"5X c #C1CEA1",
"6X c #C6D5A6",
"7X c #D5CCB3",
"8X c #EADABA",
"9X c #D7E4B6",
"0X c #D9E4B6",
"qX c #D9E5B8",
"wX c #DDE9BA",
"eX c #E0ECBD",
"rX c #CCCCCD",
"tX c #CFD2CA",
"yX c #D5D6C9",
"uX c #D1D4CC",
"iX c #CBCCD1",
"pX c #D6D7D5",
"aX c #E5E2DC",
"sX c #DFE3E4",
"dX c #E2E4E8",
"fX c #ECECEE",
"gX c #ECF1E8",
"hX c #F4F7EC",
"jX c #F6F9ED",
"kX c #EBEBF1",
"lX c #F2F4F8",
"zX c #FFFFFF",
/* pixels */
"[ [ [ [ d.f.h.d.u.L [ [ { [ | [ L L L [ L J ' [ g.h.g.d.[ ' ' H S S S ) ' [ { O.i.h.h.d.[ ' ' [ g.g.h.d.| ' J ` H S S S  .' ` S ",
"' L [ { h.z.z.h.u.u.L [ L L ' ' L u.[ L J J ' [ h.z.l.h.| ' J ` H ( A S ` ' } [ h.l.z.g.[ ' ' [ h.z.l.h.[ ' ` H S S S S i.' H H ",
"[ P { u.h.z.z.h.u.u.L L ' ' ' ' L [ [ L ' ' ' | h.j.z.h.[ ' J H S S S S ` H L [ h.z.x.h.| ' ' | h.l.z.h.| ' ' H S S S S  .' J H ",
"' [ L { d.h.h.d.[ L L L [ | { [ [ [ L [ L H ' [ d.h.h.d.P P P P K J K K L J } { h.x.z.l. .' ' [ d.h.g.d.[ ' J J ` S S S { L J J ",
"L J ' ' { u.u.{ ' ' ' [ p.h.h.i.| ' ` L L [ L [ ] [ { e.e.t.y.y.y.r.I Y P P L { h.x.z.h.u.L L [ [ | [ [ [ [ [ L ' S H ` [ [ L L ",
"' H ` ' [ [ u.[ ' ' ' | h.z.z.h.{ ' H ' [ L [ [ ' ' L e.B.n.m.D.S.v.n.c.e.P { u.h.z.z.f.u.u.[ L J ' ' ' [ [ L L J J ' H [ [ L { ",
"L ' H J L L [ L ' H ' [ h.l.z.h.{ ` ` H L [ L L J J P t.n.L.U.U.I.F.A.v.r.P { u.h.z.l.l.u.L [ [ ' ' J J [ L [ L ' ' ' ' J L L L ",
"H ` J ' L L L L J ` ' ' i.h.h.i.[ ' L L ' L ' ' H ` K y.m.U.R.R.E.Y.A.N.t.Y L { d.h.h.d.[ [ ' ' J J J ' L [ L [ [ [ | [ J J ' L ",
"H ) S ` H J ' H S S S ` } [ { [ L L L L H H S S H S G r.m.U.R.E.!.Q.(.^.%.Y ' ' { u.u.u.` ` H H L [ L [ L ' ' | g.h.j.h.H J S S ",
"S S S S ` ` H ` S ) S S H ' J } L u.L L H S ) A S S J r.n.I.R.!.Q.(.~.8.$.' J ' [ [ [ L S ) S S L L L L H ' ` { h.z.z.z.S S S A ",
"S S S H ` ' ' H S S S S ` H H ' L [ L ' ` S ) S A A J r.v.F.G.Q.(.^.*.-.=.] ' J [ L L L H S S H L [ L [ ' H ' [ h.l.z.z.' S A A ",
"S ` H H } [ | [ ` H S ` J ` J L [ [ L J H S S S S S L I N.A.K.(./.*.^ .._ ' J J L [ L L ` H H H L L [ [ L ' ' [ i.h.h.h.] ' S S ",
"` H ' [ i.h.g.i.} ` H ` [ L [ L L J ' L L ' J H S S F $.0.9.6.q.7.Q W R R K [ L L ' ' L ' ' L ' H L ` L L L L [ [ [ { [  .' L H ",
"H ` ' | g.z.z.g.[ ' ` J L L L [ ' H H ' [ [ L L H A ) _ / )./ / T u 2 j R ' L [ ' H ` ` [ L [ L ' J ' H L u.[ L [ } ` ' i.[ L L ",
"J ` ' [ g.z.z.h.[ ' ' J L u.u.L L ` H ' [ [ [ [ ) ) ( E ).u i 8 7 5 > 2 s J P L ' ' ' ' L u.L L ' ' ' ' [ L u.L ' ` H ' i.u.L L ",
"' ' ' | p.g.g.p.[ ' J J u.u.u.u.[ ' ' L u.u. .{ ' ` ( f u 3 - - - + & > a S L [ [ [ { { [ [ L L { { [ [ L L L [ ' J ' L u.L L L ",
"u.[ L [ ' ` ' } [ [ [ u.i.h.h.d.u.w.L u.i.h.h.i.{ L ( f 4 % # # + X o > p A ' | d.d.h.d.[ ' ' [ p.h.h.i.| ' ` L ' [ L L [ [ L J ",
"u.[ L L ` S H ` L L [ u.h.z.z.h.u.u.u.u.p.x.z.h.u.[ ' f 6 = $ - & o = , a ) ` { h.z.z.h.| ' ' | h.z.z.h.{ ' J ' [ L w.L [ ' J H ",
"u.{ L L S S S H [ L u.u.h.x.z.h.u.u.L w.f.x.z.h.u.{ ' s 1 = = = = = * 1 a S ' [ h.j.z.h.| ' ' [ g.l.z.g.{ ` H J L [ u.L J H ` H ",
"u.L L L ` H S ` J L [ u.h.z.z.h.u.L L u.f.f.f.d.{ [ ( a 1 > = = = = * , a Z [ [ d.f.f.d.u.' ' [ p.g.g.p.[ ' ' L [ L L L H ) H H ",
"[ J J J ' ' L ' J ' ' u.l.z.z.h.[ ' J w.e.y.y.f.{ J H d 3 - $ $ + X X ; p H [ L e.y.y.e.e.J L [ ' ` ` ` } L L [ L L ' ' H S S S ",
"' ` ' J [ L L [ J ' ' [ j.z.z.h.{ ' ' e.b.m.m.b.u.' H f 3 # @ @ O   . : s L L w.b.n.n.B.e.L L L ` ` H ` [ L [ L ` ' ` ` S A S A ",
"J J ` ' L [ u.L ' H ` ] g.z.z.g.| ` L t.n.P.P.m.e.' } f 3 - - % +   . : s ' u.e.n.P.P.n.t.u.[ ' S S S S L L [ L ' L ` ' S S A A ",
"J ' J [ u.u.u.u.[ ' ' [ g.h.h.p.{ ` { B.L.R.R.L.y.s.s f W i i u u < < 2 p A s.y.L.T.T.L.B.Y ' [ ` S H ` L L [ [ [ [ { [ S S S A ",
"[ L L u.i.h.h.d.u.u.L L [ | [ ' } ] $.~.W.R.R.D.c.U z ( &.&.*.7.~ m b N E _ $.M.W.R.R.D.c.U j s A H L ' ' ' ' { p.h.l.h.H H S A ",
"L u.L u.h.z.z.h.u.w.u.L J ' ] ] _ @.f.^.Q.Y.T.D.<.N k @.%.^.^.H.V.1.1.2.#.@.%.~.J.T.U.D.<.N g a C L [ L ' ` ' [ h.z.z.z.H H H H ",
"L [ [ u.h.x.x.h.u.u.u.G J ' K ] @.&.0.^.W.Y.U.S.I h t V N.D.Y.I.I.G.Z.6.7.&.-.~.J.Y.U.S.<.M w e l ' L [ J H ' [ h.z. Xz.} ' J ' ",
"' J J u.i.h.h.p.u.u.u.u.' ' ' _ &.^ ^.(.Q.Y.U.V.:.v v :.S.U.T.T.I.G.A./.9.0.0.^.J.Y.I.D.1.b 9 w l K [ [ L ' } [ h.z.z.x.u.i.i.i.",
"H H ` ` [ u.u.u.d.h.h.d.u.u.] _ E ! 9.(.Q.I.I.C.,.M c >.F.I.T.U.I.F.C.N.9.7.7.^.K.I.I.G.5.V 9 e l _ J L [ L { u.h.z.x.x.i.h.h.l.",
"H S S ` L u.u.u.h.z.z.h.u.w.K ( W r 7.H.K.I.G.A.2.M t >.Z.G.I.G.Z.1.1.:.m ! ~ 3.K.G.G.F.5.;.9 e l ` H J L L w.u.h.z.x.x.g.z.z.x.",
"S S S S J u.L u.h.x.l.h.u.G J z e 9 V 5.Z.G.G.V.2.y t ;.4.G.G.Z.v.<.I b y r b ,.A.F.F.Z.1.b 9 e l ' ' ' L { L u.h.z.z.z.p.z.x.x.",
"` H ` H J L L u.d.h.h.d.u.w.J Z e 0 t ;.5.Z.Z.4.m q y ~ q.&X&X&X}.`.).Q i w t ;.4.Z.Z.5.;.y r j _ } { [ [ L L u.d.h.l.l.p.p.l.l.",
"L ' ' L L L ' [ { u.u.{ ' J J Z z g c m >.4.4.:.n h ! `.*X4X4X4X2X*X{.'.).W h m >.4.4.,.m B k R ] g.h.d.[ ' ' [ u.u.u.u.u.u.i.p.",
"' L [ L ` ` H ` L { { [ ' J H S C C x B m :.;.m n x ..[.2X7X8X8X7X,X;X{.'.`.U U m :.;.m B x C _ O.j.j.h.[ ' ' ' [ [ L u.J ' ` ` ",
"u.L u.L ' H ` L L { L L J J ` ' L L K x v v c h x C a.OX2XyXaXaXpX,X>X-XOX|.=.U c t t N x D '  .h.j.j.h.| ' ' J [ L u.u.J H ` H ",
"u.u.u.u.[ ' L L L L [ J J ) ` ' { {  .D j w 0 g z u.i.XX1XpXkXkXdXrX>X;XOXz.z._ g 0 w j x ' ' [ d.h.h.d.[ ' J J ' ' G J J J G J ",
"i.h.f.i.u.L L L L ' H ` S S ` ` d.h.h.] l e 0 g ' h.h.+X6XdXlXlXkXiX>X-XOXz.z.| j g e j C L L [ ] [ [ [ [ [ L L ` S S ) L G L L ",
"l.z.z.h.u.L L L J J ' H ` A ` ` g.j.z.=.) x x C p.z.x.=X9XgXzXzXkXiX>X-XoXx.z.g.C z z Z J u.L [ ' ' ' J [ [ L J H S S S J u.L u.",
"h.z.z.h.u.u.u.[ ' H H ` S S ` ` g.h.h.h.[ ] J { h.z..X=XqXjXzXzXfXrX:X-X[.|.z.j.] J F ' L L [ L L H ' ' [ [ u.L ` S S S L L L u.",
"i.h.h.h.i.u.u.u.[ ' ' H S ) ` `  .d.g.d.{ [ P u.d.h..X3XwXjXzXzXfXrX>X{.].k.g.g. . .[ [ [ [ L [ H ' ' [ u.u.u.[ ` ` S ` G L L G ",
"u.u.u.u.i.h.h.d.u.u.G L H H ` ` ' } ` ` } ' ' [ u.u.k.%XwXhXzXzXfXrX:X{._.O.[  .g.g.h.p.[ } J ' w.s w.u.d.g.l.d.u.' G J J G J G ",
"L u.u.u.l.z.z.h.u.G u.G J ' ` H S ( S ` H ` ' J L u.k.%X9XhXzXzXfXtX:X{._.X.' { h.z.z.h.| ' H J u.w.u.u.h.x.l.g.u.u.u.G J H J H ",
"G u.u.u.h.x.x.h.u.u.u.L ' H H ` S A S S ` H H ' [ L a.$X9XjXzXzXfXrX:X{._.X.' [ h.z.z.h.{ ' ' J u.w.u.u.h.x.z.l.u.G u.u.' ` ' ' ",
"L L L u.h.z.x.h.u.w.L u.' ' ' H H S S S H H ' ' [ [ a.$X9XjXzXzXfXuX>X-X_.X.' [ h.z.z.h.[ ' ` H G G u.u.h.z.x.g.u.u.w.H u.u.i.i.",
"H J J J w.G u.u.p.h.h.i.u.L J [ |  .i.{ [ L [ i.p.h..X3XwXjXzXzXlXaX>X:XoXa.L L J ' ' J L L L L G w.G u.H J J G J ' ` u.p.p.a.g.",
"J ` J J G u.u.i.h.x.x.h.i.L L G ' ' ' [ ' L u.i.z.z..X3XwXjXzXzXzXsX7X5XOXa.L G J J J J L [ [ [ u.s G G G G u.G J ` ` u.a.l.x.x.",
"J H L J L L u.u.h.x.x.z.i.u.[ L H H J H H L u.i.l.z..X3XwXjXzXzXzXdXtX5X@Xa.L L J J J J J L [ [ | ` L ' u.u.u.G G H ' i.g.x.x. X",
"L ' ' H G H ' u.i.h.h.h.h.d.i. .[ L G G G L [ u.p.k.|.%XwXjXzXzXzXfXuX6X+X+.J J J J J J J J ' [ u.u.i.u.J u.G u.G J u.i.g.x. X X",
"[ L L J H H ` ' u.i.i.h.l.h.h.d.u.[ G G J L ' } } | k.%XqXhXzXzXlXkXuX6X@Xa.` G G L L G G ` ` u.p.a.h.p.u.` H G G L u.u.a.x. X X",
"u.L L J S S S ` ' ' u.p.l.x.x.h.i.u.L L L ` ` H H ` _.#X0XhXzXzXzXkXuX6X@Xa.G G L L L G H s ` i.a.l.l.h.u.` H G G L u.i.h.l.x. X",
"u.u.' L S S S A G G u.u.h.x.l.h.i.u.L L L L H H A A } @X9XhXzXzXzXkXuX6X@Xo.` L L u.u.` H A s p.a.x.x.h.i.| ` ` L L u.i.h.l.x.x.",
"G [ L H G H S H S G u.u.d.h.h.g.u.[ L J J H H H S A X.@X9XjXzXzXzXsXiX1XOXa.` [ u.i.i.u.` H ` | i.g.h.g.p.i.i.u.u.G L u.i.h.h.h.",
"J L L J H G H G G G G u.u.u.i.u.[ [ ' J G L J G H H o.#XqXjXzXzXzXkXtX1XOXO.[ i.i.h.h.i.u.L ` [ u.u.u.a.a.h.h.p.u.u.L L u.u.u.i.",
"` H H L ' L L G u.` G u.u.u.u.u.[ ' J L L L L G H H +.$XqXjXzXzXzXkXtX<X].o.[ i.l.l.l.h.u.u.L G u.s } p.h.l.l.h.u.` H L u.u.u.u.",
"H ` ' ' u.u.u.u.` ` s w.G w.u.G H H ` ' [ u.u.u.L L +.$XwXjXzXzXzXkXtX<X].a.u.d.l.x.x.l.i.u.L H L G ' u.g.x.x.h.u.s H H L L L L ",
"J L ' u.u.i.i.u.u.u.u.G G u.w.s H ` ` [ u.i.i.u.[ ' a.%XwXjXzXzXzXkXtX<X].i.[ d.l.x.x.l.i.u.G G G G L u.p.h.a.p.i.u.H G G H G G ",
"L L [ i.d.l.h.d.u.s G G L L H H G A H | p.h.h.h. .[ k.=XeXjXzXzXzXfXtX1XoXX.[ i.l.x. Xl.i.' G G G L [ [ | i.i.| u.L H G H u.G s ",
"L L u.i.h.l.x.h.d.u.G G L H H H A A ) | g.z.x.l.i.[ k.=XeXjXzXzXzXfXuX<XoXX.' p.l.x.x.h.i.` G H L L [ [ [ ' ' L L u.L H H s H G ",
"L L [ i.h.x.x.h.d.u.w.u.u.G H s A A ) | p.z.z.h.i.L k.=XeXjXzXzXzXfXtX<XoXX.'  .g.l.l.a.i.| H ` L [ L L ` H G L L u.u.` ` H s L ",
"L G L u.d.h.l.h.h.d.u.u.L u.G u.S S ) } O.g.a.p.{ [ k.=XeXjXzXzXzXfXtX<XoXo.} { p.p.h.p.p.i.u.| [ [ L L G G L L u.i.i.u.[ ` H H ",
"G ` ` [ u.u.d.d.h.h.h.i.u.L L H H H ` ` } | | [ [ ' +.%XwXjXzXzXzXfXtX<XoXO.[ [ u.u.i.p.g.h.p.p.i.[ ` G L G u.u.d.h.h.i.u.' ` H ",
"A A S ` L u.u.d.h.l.l.h.i.u.L H J J H ` ` ) ) H ` ' J [ L u.[ ' ` S S H ` ' L [ L ` } i.h.l.l.g.u.` G ` G L u.u.h.l.l.h.i.[ L L ",
"s A A G G G u.i.l.x.x.l.i.u.L G J J H H A A A A H ` J ' L L L H S A S H L u.[ L G G ` | l.x.x.a.i.' ` G G L u.d.l.x.x.l.u.u.L L ",
"` A A A G G u.i.l.x.x.l.i.u.G u.J ' J S A A A A S H J J L L L H H A A H H L L L H H ` i.h.x.x.l.i.[ ` G G L u.d.l.x.x.l.u.u.u.L "
};
