/* XPM */
static char *result[] = {
/* columns rows colors chars-per-pixel */
"64 64 26 1 ",
"  c #87AA1C",
". c #8AAD1D",
"X c #8EB417",
"o c #8EB21D",
"O c #91B51E",
"+ c #94BA1E",
"@ c #8BAF21",
"# c #8EB220",
"$ c #91B621",
"% c #95BB22",
"& c #99BE25",
"* c #93B729",
"= c #96BA2A",
"- c #9ABE2A",
"; c #9ABE30",
": c #9BC027",
"> c #9DC22C",
", c #9FC331",
"< c #A1C52F",
"1 c #A2C633",
"2 c #A5C934",
"3 c #A7CC38",
"4 c #A9CD3A",
"5 c #ACD13D",
"6 c #AFD440",
"7 c #B0D540",
/* pixels */
"%%%%<22<:++++-&%%%+++%$%<12<=$Oo@..@$%--<22<%O$%1111%$$$@...-*oo",
"$+%&2442:&&+++$++%%++O$*2442%$$@..@.oO$=2442%$$=2441=Ooo....-$oX",
"%+%:2442:+&+$$+$++%+OO$=2441=$oo@...#O$-2452=O$%2441=O$o....-$oo",
"++%:<22<:+++%=%%%%+$O$$%<12<%$+O@.@.O$$%2452=%$%<12<%O$oo@..-+OO",
"++$$&-<%%$$%111<%$$$%++%*%%%%%&Ooo@@$+&-2542:%%%&=&%%%&%###o%%++",
"O$O$&+&%$$$%2442=$$O+%+%$O$$+&+++OO+O++<2442:%%+%$$%+%++O$oO+++&",
"OO$O++++$o$*1442%$$O%+$++Oo$O+&+$$+++++<2442:%+%oooo%++++$OOO++&",
"$.@O++++$o#%<11<&$OO+%O#@o$o+%++%%&-++++<22<&+$%o%%O+%++%==%OOOO",
"@.o@o$o$@@.o%**&%+++Oo......$O$%122>%$$%&::&#o.o++%+$$+&<222oo.o",
"....oo$@@...$$O+%+++o.@...@.@$$=2442=*o$%&++@..@%++%$o$*2444o.  ",
"....$$$$...@@OoO+%++@......@O$$%2442%$OO%+++o@.oO+%+OO$*2444o.  ",
"o@o@**%%@..oO$OO$%+$oo@.....$*--<11,%%OO+%++oo.o+++%O$+%,122*o#.",
"Oo$*>11>*$o@O&++$OO+O$OO...@>12<-=%&%+%++$$$+$+$+O$O+%+%%=%--+Oo",
"Oo$%1441%OOOO+&++O#O%+%+..@$<341:$$$+%%%$$o$++%+$OOO%+%%++#+<&OO",
"$o$=2441*OOO+++&+#O$%%+%@@@$1331=$$$+%++$$$+%+&%+O$++&+%##O#<&++",
"$$$%>11<*$++<&<&$$$+::-&#@@$<2<<*ooo++%%%=%%%+++%-*%%+%+++OO:&++",
":%%%$$*$%+%&<22<:+&&<22<&++$%%**#@.##O$&<12<=$O%<21<&$$$%+++:++O",
":&++o@@@%+%:2442::+:2442:&+%$$$$....#O$%2441%$$=1441*$OO+%++%+OO",
":+++o..@+++<2442:&&:2442&++%$OO.....##O=2442=OO=1441*$OO%+%%OOOO",
":+++o@.o+++-4442:++:<22<-%+%$+$O#.@.OOO&<11<-$O%,11<%+OO+%+%o...",
"$OOO+%+$OO$%4442&O++:::&$OOO+&+OOooo+%+%%=%&%+%+$**$+%+%OOO$....",
"$$$+O++%$O$=2442%OO++:++$$$O++++O#o$++%+OO$O+%%+...oO%%+$O$O... ",
"OOo$+&&+$O$%2442=$X+:+:+$OO+&++&OO$$%+%%OOOO+%%O@..@++%%$$OO..  ",
"$O%O::::$+$*1111%$++::::$O++&<::%$O$+%%%$O$O%+%$oo@o++%%%==%. ..",
"%O+:<22<&&++%%=%%%%&<22<&+&:<22<&%%++OOO++%+OOO$O%%OOO+*<242... ",
"O&&:2442:+&++O$$%%%:2442:++:2442:&%+OOOO+&+%OOOO%++%$o*%2444OO.X",
"+&+:244<:&+&+++++&%:1332::::2442:%+%OOOO%%%%O$$%+%%+OOO&2446$$O%",
"OOO&<22<<:::+X+++++&<11<+++:4442&&%+$OOOOO$$=&%%%++%$O%&2444--,<",
"O@oO%-<<<22<:+++++$$$#*#++$&2442-$OO%++%o@o$<11<%$OO++&:2446<222",
"o@@.+++<2442::++OOO#@@@@OO*%2442=$OO%%+O@.@*<442%$$O+%%:24641444",
"o..@O+&:2442:++:$$.o@...@$$%2442%OOO+&&+@.@$<442=$$%+%&:24441464",
"o@oo++&&<22<:++++OO$@.@oOO$*;21;=$O%&:&&O@@$<12<--=%%%%&1222;144",
"$+++O$$$%::&$$O$+%++O@oO++%%*#$$%%%:<22<&%O%%%--<22<&+#+-::::-,-",
"+%$+OOO$%:%%$#OO%+%+OoOO%+++o@@$O+%:2442:+%++$$-<442*$$$%%&&++#*",
"%::+$#$O+:++OO$O+:%%$OOO%:%$.@..%%&:2442:&%+$O$*2441*$+O+%%+OOoo",
"::::$$++++%O$o#$%::&$$++%:&&#o.OO+%:2442:%+%$$$%<<2<%+$O++OOXOOX",
"<22<:++++OOo..##<22<:++:<22<&%+$OOO=4444-+$$+%+%%*%*%%++o#..O++O",
"2442::++OOO#@..*2442::::2442:%%+$OO&2442%$o$%+%+%$$++%+O....O%+&",
"2442:+:%O##o...$134<:++:2442:%+%OOO%2442-$$%+&+%$OO$&&++#...++&+",
"<22<>:::$$O$#.o*-1<<:++:<22<%%$$$O+%<<2<-=%%++%%OO$$&::&o.oXO+++",
"::::222<&++++X##$*#*$$$$<&&:+..OO%%%%*--<22<&%$O+++&<22<-+++OXOX",
"++::2542&&++OO#o...@#oO$+&++O..@%%+++$+*2441*$OO&+&:2442:%++OOoO",
"+++:2452:&++O$o#....o##$+++$..@.++++$OO&2442*$$O++&:2444:++&%%O$",
"++::2552:&&++o#o....#oO$%+++....++&%$O$%2442%$OO++::2442:&&+==,-",
"OOOO+++:,22,:+OO%--&%%%:1221-%%&<12<:&+OO%$OO++O+OXOOOOOO#%-,111",
"oOOO++:<2552>+++$$*O++:>3442<%%>1442>&+OOOOO%%%%+XXO+++OOo$=,244",
"OOOO++&:2552<:++OOoOO+%>1442-+%>2474<&++OOOO+++%%+%%+%++XO$>3477",
"OOOOXO+:,2222<>-%OXXO+&:,11>&+%>4742>&XOX$OOOO$%=---&++OXO*;2477",
"%++Oo.##->22222,:%+XO++**==*OO%>4554>%OXOOOX..#=<111-OXXOO&>2577",
":++O...oo%:<2552<%++OOO@.@@@.o%>2553;+ooO++X..@=1441-#XXXO&<2455",
":+%O@.. X+%>2552<%+++OO    . o*-1441-$o+%&%+. @=1444,*$$O+&><455",
"+%+ooX.XXo+:,22,-%+OOOOX X  X+$%;,1;%$+&:<>-Ooo*;121,;;=%++:<222",
"+O+oooXXXoO::>>:&%OO+XOOOX..OOO$*==*$O&:<22<&+OO=;<<1211:OO+&<<<",
"ooo+++++$Oo%::::$OO+++++O@$O++++@@@@X+::244<>%++##*-2441>$OO+&&&",
"#o#%%:::$OOO++X+OOo$+%%%+OO%+&%+....O+&<4544<&+XXX#-1441;$oOO+++",
"++$:>>>::$OXX+OXo.#%><<>%+$%:<<-+X .XX&<2554<%+XXO$-1121=$XoXXXX",
"+O::<22<:$XX+OOX X@*1241:%%:<23<%$XXXOO<4544-OXXX+%%----&+XXoo..",
"+O:>2552:%++XO#o  @=1442<%%:2442>:++oo$>4454-$ooX+%%%%$O+++oo...",
"++::2552,:++%Ooo  @=1343:%+<2442<&OXOo$;1441;%$$%&++$oX+%%&%o.  ",
"XX::>2332,>:%$oo..@*;11;&%%:<33<-%OOOO$&1111<;-%%%++oX+&:<<=$#..",
"oo#:::><222,:%OXo.@$*===%$+%<<<-%@ooO+O&=->;111,&%oo+X&:<22<-Ooo",
". ..++:<2442>:+OOOO@@#@.#$$%+&++@..oO++OO$%;1441-%$XX+&:2442<%++",
"   .X+&<2552,+++OOO..   .oO++++Oo .@O&++oX#;1662-%oXX+&<2552<&++",
"   .X++<2554>:+++OO.    .o$O++Xo...OO+++X.#;1642>$oXX+&22552<:++"
};
